luts/peruano-A-noche.cube
TITLE "peruano-A-noche"
LUT_3D_SIZE 5
DOMAIN_MIN 0 0 0
DOMAIN_MAX 1 1 1
0.098791 0.040369 0.079265
0.371891 0.000000 0.016878
0.661864 0.000000 0.000000
0.945069 0.000000 0.000000
1.000000 0.000000 0.000000
0.000000 0.281716 0.000000
0.302487 0.263895 0.000000
0.614521 0.182972 0.000000
0.912927 0.000000 0.000000
1.000000 0.000000 0.000000
0.000000 0.526054 0.000000
0.138300 0.521335 0.000000
0.524367 0.500643 0.000000
0.840657 0.449028 0.000000
1.000000 0.341823 0.000000
0.000000 0.768209 0.000000
0.000000 0.766127 0.000000
0.383545 0.757456 0.000000
0.744504 0.735556 0.000000
1.000000 0.692985 0.000000
0.000000 1.000000 0.000000
0.000000 1.000000 0.000000
0.000000 1.000000 0.000000
0.609592 0.992204 0.000000
0.962983 0.969673 0.000000
0.000000 0.000000 0.412407
0.366540 0.000000 0.363992
0.666244 0.000000 0.292273
0.951687 0.000000 0.228259
1.000000 0.000000 0.166890
0.000000 0.276178 0.305619
0.309367 0.255548 0.288820
0.623108 0.167026 0.248595
0.921063 0.000000 0.196467
1.000000 0.000000 0.134274
0.000000 0.523811 0.176243
0.178278 0.518488 0.166270
0.538728 0.496580 0.135228
0.850928 0.443435 0.071137
1.000000 0.333158 0.000000
0.000000 0.766875 0.000000
0.000000 0.764613 0.000000
0.405422 0.755493 0.000000
0.756324 0.733026 0.000000
1.000000 0.689828 0.000000
0.000000 1.000000 0.000000
0.000000 1.000000 0.000000
0.000000 1.000000 0.000000
0.624025 0.990759 0.000000
0.972158 0.967917 0.000000
0.000000 0.000000 0.760684
0.307347 0.000000 0.725669
0.652244 0.000000 0.658131
0.953532 0.000000 0.586063
1.000000 0.000000 0.517754
0.000000 0.257861 0.673005
0.262353 0.232284 0.656150
0.617473 0.118999 0.613570
0.926546 0.000000 0.557396
1.000000 0.000000 0.497640
0.000000 0.518336 0.553542
0.157646 0.511546 0.545770
0.546531 0.486414 0.523060
0.863195 0.428800 0.486772
1.000000 0.308910 0.441182
0.000000 0.763665 0.432060
0.000000 0.760886 0.427069
0.432279 0.750456 0.411676
0.775797 0.726272 0.384588
1.000000 0.681117 0.346149
0.000000 1.000000 0.274392
0.000000 1.000000 0.269194
0.122177 0.999318 0.252429
0.652878 0.986759 0.219826
0.992546 0.962935 0.163721
0.000000 0.000000 1.000000
0.079825 0.000000 1.000000
0.602197 0.000000 1.000000
0.934856 0.000000 0.949692
1.000000 0.000000 0.877764
0.000000 0.216050 1.000000
0.000000 0.182821 1.000000
0.573778 0.000000 0.977463
0.912031 0.000000 0.920741
1.000000 0.000000 0.857266
0.000000 0.507639 0.917819
0.000000 0.499174 0.909992
0.514068 0.469794 0.886844
0.857197 0.405085 0.849283
1.000000 0.266584 0.801775
0.000000 0.758633 0.799014
0.000000 0.755105 0.794334
0.417374 0.742700 0.779930
0.780301 0.715766 0.754846
1.000000 0.667287 0.720324
0.000000 1.000000 0.679311
0.000000 1.000000 0.675989
0.166430 0.994571 0.665572
0.671093 0.980536 0.646756
1.000000 0.954992 0.619500
0.000000 0.000000 1.000000
0.000000 0.000000 1.000000
0.497841 0.000000 1.000000
0.889019 0.000000 1.000000
1.000000 0.000000 1.000000
0.000000 0.124320 1.000000
0.000000 0.050414 1.000000
0.471049 0.000000 1.000000
0.869567 0.000000 1.000000
1.000000 0.000000 1.000000
0.000000 0.488091 1.000000
0.000000 0.478097 1.000000
0.412400 0.444105 1.000000
0.821764 0.369535 1.000000
1.000000 0.193717 1.000000
0.000000 0.750500 1.000000
0.000000 0.746173 1.000000
0.315895 0.731555 1.000000
0.754196 0.701271 1.000000
1.000000 0.648365 1.000000
0.000000 0.998040 1.000000
0.000000 0.995807 1.000000
0.000000 0.988203 1.000000
0.657691 0.972258 1.000000
1.000000 0.944393 0.985410
