luts/peruano-A-noche.cube
TITLE "peruano-A-noche"
LUT_3D_SIZE 33
DOMAIN_MIN 0 0 0
DOMAIN_MAX 1 1 1
0.098791 0.040369 0.079265
0.118665 0.036535 0.076898
0.138112 0.032000 0.074152
0.165036 0.022517 0.070182
0.200851 0.003050 0.064833
0.246395 0.000000 0.058025
0.292958 0.000000 0.048648
0.334279 0.000000 0.034387
0.371891 0.000000 0.016878
0.408949 0.000000 0.000132
0.445668 0.000000 0.000000
0.482122 0.000000 0.000000
0.518363 0.000000 0.000000
0.554432 0.000000 0.000000
0.590357 0.000000 0.000000
0.626162 0.000000 0.000000
0.661864 0.000000 0.000000
0.697478 0.000000 0.000000
0.733015 0.000000 0.000000
0.768486 0.000000 0.000000
0.803897 0.000000 0.000000
0.839255 0.000000 0.000000
0.874566 0.000000 0.000000
0.909835 0.000000 0.000000
0.945069 0.000000 0.000000
0.980284 0.000000 0.000000
1.000000 0.000000 0.000000
1.000000 0.000000 0.000000
1.000000 0.000000 0.000000
1.000000 0.000000 0.000000
1.000000 0.000000 0.000000
1.000000 0.000000 0.000000
1.000000 0.000000 0.000000
0.092086 0.068006 0.071054
0.113055 0.065322 0.068463
0.133659 0.061827 0.065455
0.162104 0.053886 0.061091
0.199343 0.035100 0.055146
0.244745 0.000752 0.047157
0.288154 0.000000 0.035379
0.327568 0.000000 0.020153
0.365861 0.000000 0.004804
0.403576 0.000000 0.000000
0.440846 0.000000 0.000000
0.477766 0.000000 0.000000
0.514404 0.000000 0.000000
0.550813 0.000000 0.000000
0.587033 0.000000 0.000000
0.623094 0.000000 0.000000
0.659022 0.000000 0.000000
0.694835 0.000000 0.000000
0.730549 0.000000 0.000000
0.766176 0.000000 0.000000
0.801729 0.000000 0.000000
0.837215 0.000000 0.000000
0.872641 0.000000 0.000000
0.908015 0.000000 0.000000
0.943347 0.000000 0.000000
0.978655 0.000000 0.000000
1.000000 0.000000 0.000000
1.000000 0.000000 0.000000
1.000000 0.000000 0.000000
1.000000 0.000000 0.000000
1.000000 0.000000 0.000000
1.000000 0.000000 0.000000
1.000000 0.000000 0.000000
0.083943 0.091339 0.060753
0.106372 0.089245 0.057823
0.128587 0.086370 0.054405
0.158561 0.080570 0.049314
0.196894 0.068749 0.042069
0.240611 0.047391 0.032057
0.281422 0.021887 0.019385
0.321033 0.000000 0.006090
0.359875 0.000000 0.000000
0.398104 0.000000 0.000000
0.435839 0.000000 0.000000
0.473175 0.000000 0.000000
0.510183 0.000000 0.000000
0.546920 0.000000 0.000000
0.583430 0.000000 0.000000
0.619750 0.000000 0.000000
0.655908 0.000000 0.000000
0.691927 0.000000 0.000000
0.727826 0.000000 0.000000
0.763621 0.000000 0.000000
0.799324 0.000000 0.000000
0.834946 0.000000 0.000000
0.870497 0.000000 0.000000
0.905984 0.000000 0.000000
0.941427 0.000000 0.000000
0.976836 0.000000 0.000000
1.000000 0.000000 0.000000
1.000000 0.000000 0.000000
1.000000 0.000000 0.000000
1.000000 0.000000 0.000000
1.000000 0.000000 0.000000
1.000000 0.000000 0.000000
1.000000 0.000000 0.000000
0.068924 0.119287 0.042857
0.093910 0.118440 0.038899
0.118556 0.117033 0.034355
0.150833 0.113878 0.027933
0.190910 0.107105 0.019681
0.232469 0.096932 0.010231
0.273185 0.083471 0.000000
0.313138 0.065204 0.000000
0.352420 0.038126 0.000000
0.391122 0.002103 0.000000
0.429328 0.000000 0.000000
0.467113 0.000000 0.000000
0.504540 0.000000 0.000000
0.541663 0.000000 0.000000
0.578526 0.000000 0.000000
0.615168 0.000000 0.000000
0.651618 0.000000 0.000000
0.687902 0.000000 0.000000
0.724043 0.000000 0.000000
0.760057 0.000000 0.000000
0.795960 0.000000 0.000000
0.831766 0.000000 0.000000
0.867484 0.000000 0.000000
0.903130 0.000000 0.000000
0.938724 0.000000 0.000000
0.974270 0.000000 0.000000
1.000000 0.000000 0.000000
1.000000 0.000000 0.000000
1.000000 0.000000 0.000000
1.000000 0.000000 0.000000
1.000000 0.000000 0.000000
1.000000 0.000000 0.000000
1.000000 0.000000 0.000000
0.029970 0.154968 0.012949
0.068033 0.154438 0.009285
0.101101 0.153108 0.005420
0.140912 0.149788 0.000376
0.182498 0.144566 0.000000
0.223615 0.137658 0.000000
0.264223 0.128779 0.000000
0.304301 0.117508 0.000000
0.343859 0.103139 0.000000
0.382924 0.084339 0.000000
0.421537 0.057985 0.000000
0.459744 0.016902 0.000000
0.497589 0.000000 0.000000
0.535115 0.000000 0.000000
0.572361 0.000000 0.000000
0.609361 0.000000 0.000000
0.646144 0.000000 0.000000
0.682738 0.000000 0.000000
0.719164 0.000000 0.000000
0.755442 0.000000 0.000000
0.791589 0.000000 0.000000
0.827620 0.000000 0.000000
0.863548 0.000000 0.000000
0.899398 0.000000 0.000000
0.935180 0.000000 0.000000
0.970901 0.000000 0.000000
1.000000 0.000000 0.000000
1.000000 0.000000 0.000000
1.000000 0.000000 0.000000
1.000000 0.000000 0.000000
1.000000 0.000000 0.000000
1.000000 0.000000 0.000000
1.000000 0.000000 0.000000
0.000000 0.189023 0.000000
0.046670 0.187669 0.000000
0.090529 0.185861 0.000000
0.132269 0.183170 0.000000
0.173448 0.179413 0.000000
0.214256 0.174428 0.000000
0.254716 0.168044 0.000000
0.294809 0.160058 0.000000
0.334516 0.150195 0.000000
0.373831 0.138054 0.000000
0.412761 0.122984 0.000000
0.451325 0.103826 0.000000
0.489548 0.078095 0.000000
0.527456 0.038041 0.000000
0.565079 0.000000 0.000000
0.602444 0.000000 0.000000
0.639577 0.000000 0.000000
0.676502 0.000000 0.000000
0.713241 0.000000 0.000000
0.749812 0.000000 0.000000
0.786234 0.000000 0.000000
0.822523 0.000000 0.000000
0.858705 0.000000 0.000000
0.894793 0.000000 0.000000
0.930796 0.000000 0.000000
0.966722 0.000000 0.000000
1.000000 0.000000 0.000000
1.000000 0.000000 0.000000
1.000000 0.000000 0.000000
1.000000 0.000000 0.000000
1.000000 0.000000 0.000000
1.000000 0.000000 0.000000
1.000000 0.000000 0.000000
0.000000 0.220103 0.000000
0.030325 0.218959 0.000000
0.078370 0.217616 0.000000
0.121519 0.215614 0.000000
0.163145 0.212809 0.000000
0.204070 0.209074 0.000000
0.244564 0.204280 0.000000
0.284713 0.198293 0.000000
0.324538 0.190959 0.000000
0.364040 0.182085 0.000000
0.403216 0.171411 0.000000
0.442073 0.158557 0.000000
0.480619 0.142931 0.000000
0.518870 0.123518 0.000000
0.556843 0.098308 0.000000
0.594558 0.062003 0.000000
0.632036 0.001154 0.000000
0.669295 0.000000 0.000000
0.706355 0.000000 0.000000
0.743234 0.000000 0.000000
0.779953 0.000000 0.000000
0.816537 0.000000 0.000000
0.852999 0.000000 0.000000
0.889348 0.000000 0.000000
0.925595 0.000000 0.000000
0.961750 0.000000 0.000000
0.997819 0.000000 0.000000
1.000000 0.000000 0.000000
1.000000 0.000000 0.000000
1.000000 0.000000 0.000000
1.000000 0.000000 0.000000
1.000000 0.000000 0.000000
1.000000 0.000000 0.000000
0.000000 0.250938 0.000000
0.006371 0.250058 0.000000
0.059771 0.249025 0.000000
0.107384 0.247487 0.000000
0.150801 0.245329 0.000000
0.192556 0.242449 0.000000
0.233475 0.238742 0.000000
0.273881 0.234104 0.000000
0.313910 0.228428 0.000000
0.353614 0.221592 0.000000
0.393017 0.213453 0.000000
0.432129 0.203828 0.000000
0.470957 0.192467 0.000000
0.509511 0.179016 0.000000
0.547801 0.162936 0.000000
0.585840 0.143336 0.000000
0.623644 0.118558 0.000000
0.661227 0.084737 0.000000
0.698607 0.027265 0.000000
0.735809 0.000000 0.000000
0.772849 0.000000 0.000000
0.809738 0.000000 0.000000
0.846489 0.000000 0.000000
0.883113 0.000000 0.000000
0.919620 0.000000 0.000000
0.956020 0.000000 0.000000
0.992321 0.000000 0.000000
1.000000 0.000000 0.000000
1.000000 0.000000 0.000000
1.000000 0.000000 0.000000
1.000000 0.000000 0.000000
1.000000 0.000000 0.000000
1.000000 0.000000 0.000000
0.000000 0.281716 0.000000
0.000000 0.281018 0.000000
0.028445 0.280202 0.000000
0.087807 0.278988 0.000000
0.135364 0.277286 0.000000
0.179063 0.275011 0.000000
0.221026 0.272079 0.000000
0.262050 0.268402 0.000000
0.302487 0.263895 0.000000
0.342502 0.258469 0.000000
0.382178 0.252027 0.000000
0.421554 0.244456 0.000000
0.460652 0.235620 0.000000
0.499486 0.225344 0.000000
0.538067 0.213392 0.000000
0.576406 0.199432 0.000000
0.614521 0.182972 0.000000
0.652428 0.163222 0.000000
0.690138 0.138788 0.000000
0.727664 0.106709 0.000000
0.765017 0.057773 0.000000
0.802209 0.000000 0.000000
0.839251 0.000000 0.000000
0.876154 0.000000 0.000000
0.912927 0.000000 0.000000
0.949581 0.000000 0.000000
0.986124 0.000000 0.000000
1.000000 0.000000 0.000000
1.000000 0.000000 0.000000
1.000000 0.000000 0.000000
1.000000 0.000000 0.000000
1.000000 0.000000 0.000000
1.000000 0.000000 0.000000
0.000000 0.312440 0.000000
0.000000 0.311874 0.000000
0.000000 0.311214 0.000000
0.058073 0.310235 0.000000
0.115184 0.308862 0.000000
0.162707 0.307029 0.000000
0.206661 0.304664 0.000000
0.248850 0.301694 0.000000
0.290029 0.298047 0.000000
0.330559 0.293651 0.000000
0.370626 0.288431 0.000000
0.410330 0.282307 0.000000
0.449729 0.275188 0.000000
0.488860 0.266969 0.000000
0.527744 0.257516 0.000000
0.566396 0.246662 0.000000
0.604826 0.234183 0.000000
0.643047 0.219769 0.000000
0.681067 0.202967 0.000000
0.718898 0.183078 0.000000
0.756551 0.158912 0.000000
0.794035 0.128120 0.000000
0.831362 0.084549 0.000000
0.868540 0.002841 0.000000
0.905579 0.000000 0.000000
0.942489 0.000000 0.000000
0.979278 0.000000 0.000000
1.000000 0.000000 0.000000
1.000000 0.000000 0.000000
1.000000 0.000000 0.000000
1.000000 0.000000 0.000000
1.000000 0.000000 0.000000
1.000000 0.000000 0.000000
0.000000 0.343115 0.000000
0.000000 0.342647 0.000000
0.000000 0.342103 0.000000
0.007167 0.341297 0.000000
0.086912 0.340171 0.000000
0.142141 0.338667 0.000000
0.189638 0.336727 0.000000
0.233822 0.334288 0.000000
0.276248 0.331290 0.000000
0.317618 0.327669 0.000000
0.358296 0.323365 0.000000
0.398477 0.318314 0.000000
0.438275 0.312448 0.000000
0.477758 0.305693 0.000000
0.516965 0.297963 0.000000
0.555925 0.289156 0.000000
0.594654 0.279147 0.000000
0.633169 0.267773 0.000000
0.671480 0.254822 0.000000
0.709599 0.240004 0.000000
0.747535 0.222905 0.000000
0.785297 0.202897 0.000000
0.822897 0.178952 0.000000
0.860342 0.149158 0.000000
0.897642 0.109076 0.000000
0.934805 0.040635 0.000000
0.971839 0.000000 0.000000
1.000000 0.000000 0.000000
1.000000 0.000000 0.000000
1.000000 0.000000 0.000000
1.000000 0.000000 0.000000
1.000000 0.000000 0.000000
1.000000 0.000000 0.000000
0.000000 0.373734 0.000000
0.000000 0.373341 0.000000
0.000000 0.372885 0.000000
0.000000 0.372210 0.000000
0.040896 0.371269 0.000000
0.115509 0.370015 0.000000
0.169314 0.368398 0.000000
0.216704 0.366366 0.000000
0.261040 0.363866 0.000000
0.303655 0.360844 0.000000
0.345195 0.357246 0.000000
0.386010 0.353020 0.000000
0.426302 0.348111 0.000000
0.466190 0.342461 0.000000
0.505749 0.336007 0.000000
0.545026 0.328680 0.000000
0.584054 0.320398 0.000000
0.622854 0.311061 0.000000
0.661443 0.300549 0.000000
0.699834 0.288707 0.000000
0.738038 0.275334 0.000000
0.776066 0.260158 0.000000
0.813926 0.242797 0.000000
0.851627 0.222686 0.000000
0.889178 0.198928 0.000000
0.926587 0.169933 0.000000
0.963861 0.132333 0.000000
1.000000 0.075698 0.000000
1.000000 0.000000 0.000000
1.000000 0.000000 0.000000
1.000000 0.000000 0.000000
1.000000 0.000000 0.000000
1.000000 0.000000 0.000000
0.000000 0.404291 0.000000
0.000000 0.403956 0.000000
0.000000 0.403568 0.000000
0.000000 0.402995 0.000000
0.000000 0.402198 0.000000
0.077822 0.401138 0.000000
0.144286 0.399773 0.000000
0.196845 0.398059 0.000000
0.244017 0.395949 0.000000
0.288401 0.393397 0.000000
0.331131 0.390356 0.000000
0.372793 0.386780 0.000000
0.413718 0.382622 0.000000
0.454103 0.377835 0.000000
0.494071 0.372369 0.000000
0.533700 0.366171 0.000000
0.573042 0.359182 0.000000
0.612133 0.351333 0.000000
0.650997 0.342548 0.000000
0.689654 0.332729 0.000000
0.728117 0.321761 0.000000
0.766398 0.309496 0.000000
0.804507 0.295742 0.000000
0.842454 0.280245 0.000000
0.880246 0.262653 0.000000
0.917892 0.242453 0.000000
0.955399 0.218855 0.000000
0.992774 0.190515 0.000000
1.000000 0.154785 0.000000
1.000000 0.104748 0.000000
1.000000 0.004918 0.000000
1.000000 0.000000 0.000000
1.000000 0.000000 0.000000
0.000000 0.434795 0.000000
0.000000 0.434506 0.000000
0.000000 0.434172 0.000000
0.000000 0.433680 0.000000
0.000000 0.432997 0.000000
0.009853 0.432090 0.000000
0.111325 0.430925 0.000000
0.173056 0.429462 0.000000
0.224560 0.427663 0.000000
0.271475 0.425485 0.000000
0.315847 0.422890 0.000000
0.358646 0.419834 0.000000
0.400398 0.416278 0.000000
0.441411 0.412180 0.000000
0.481877 0.407499 0.000000
0.521916 0.402192 0.000000
0.561610 0.396213 0.000000
0.601014 0.389511 0.000000
0.640164 0.382029 0.000000
0.679089 0.373703 0.000000
0.717807 0.364457 0.000000
0.756336 0.354197 0.000000
0.794686 0.342813 0.000000
0.832869 0.330162 0.000000
0.870893 0.316064 0.000000
0.908768 0.300278 0.000000
0.946499 0.282479 0.000000
0.984095 0.262201 0.000000
1.000000 0.238741 0.000000
1.000000 0.210949 0.000000
1.000000 0.176686 0.000000
1.000000 0.130996 0.000000
1.000000 0.053827 0.000000
0.000000 0.465253 0.000000
0.000000 0.465002 0.000000
0.000000 0.464711 0.000000
0.000000 0.464284 0.000000
0.000000 0.463692 0.000000
0.000000 0.462909 0.000000
0.060461 0.461903 0.000000
0.143171 0.460642 0.000000
0.201747 0.459092 0.000000
0.252365 0.457218 0.000000
0.299015 0.454982 0.000000
0.343343 0.452349 0.000000
0.386181 0.449281 0.000000
0.428000 0.445744 0.000000
0.469086 0.441700 0.000000
0.509621 0.437113 0.000000
0.549726 0.431944 0.000000
0.589481 0.426154 0.000000
0.628942 0.419699 0.000000
0.668149 0.412531 0.000000
0.707130 0.404595 0.000000
0.745907 0.395829 0.000000
0.784496 0.386158 0.000000
0.822910 0.375494 0.000000
0.861160 0.363728 0.000000
0.899255 0.350724 0.000000
0.937204 0.336311 0.000000
0.975013 0.320264 0.000000
1.000000 0.302280 0.000000
1.000000 0.281933 0.000000
1.000000 0.258596 0.000000
1.000000 0.231270 0.000000
1.000000 0.198191 0.000000
0.000000 0.495671 0.000000
0.000000 0.495450 0.000000
0.000000 0.495195 0.000000
0.000000 0.494821 0.000000
0.000000 0.494304 0.000000
0.000000 0.493620 0.000000
0.000000 0.492744 0.000000
0.102076 0.491648 0.000000
0.174029 0.490301 0.000000
0.230335 0.488674 0.000000
0.280205 0.486732 0.000000
0.326601 0.484445 0.000000
0.370866 0.481779 0.000000
0.413722 0.478702 0.000000
0.455591 0.475182 0.000000
0.496738 0.471186 0.000000
0.537336 0.466682 0.000000
0.577500 0.461636 0.000000
0.617313 0.456012 0.000000
0.656829 0.449772 0.000000
0.696089 0.442875 0.000000
0.735124 0.435275 0.000000
0.773956 0.426918 0.000000
0.812602 0.417744 0.000000
0.851075 0.407681 0.000000
0.889387 0.396643 0.000000
0.927548 0.384524 0.000000
0.965565 0.371197 0.000000
1.000000 0.356497 0.000000
1.000000 0.340212 0.000000
1.000000 0.322060 0.000000
1.000000 0.301653 0.000000
1.000000 0.278423 0.000000
0.000000 0.526054 0.000000
0.000000 0.525858 0.000000
0.000000 0.525633 0.000000
0.000000 0.525302 0.000000
0.000000 0.524846 0.000000
0.000000 0.524244 0.000000
0.000000 0.523475 0.000000
0.027145 0.522514 0.000000
0.138300 0.521335 0.000000
0.204228 0.519911 0.000000
0.258816 0.518213 0.000000
0.308050 0.516212 0.000000
0.354206 0.513879 0.000000
0.398401 0.511184 0.000000
0.441261 0.508100 0.000000
0.483168 0.504596 0.000000
0.524367 0.500643 0.000000
0.565020 0.496213 0.000000
0.605240 0.491275 0.000000
0.645106 0.485798 0.000000
0.684675 0.479748 0.000000
0.723987 0.473088 0.000000
0.763073 0.465780 0.000000
0.801957 0.457777 0.000000
0.840657 0.449028 0.000000
0.879186 0.439475 0.000000
0.917556 0.429048 0.000000
0.955777 0.417662 0.000000
0.993858 0.405218 0.000000
1.000000 0.391592 0.000000
1.000000 0.376628 0.000000
1.000000 0.360126 0.000000
1.000000 0.341823 0.000000
0.000000 0.556405 0.000000
0.000000 0.556230 0.000000
0.000000 0.556030 0.000000
0.000000 0.555736 0.000000
0.000000 0.555331 0.000000
0.000000 0.554797 0.000000
0.000000 0.554117 0.000000
0.000000 0.553268 0.000000
0.085739 0.552228 0.000000
0.171960 0.550972 0.000000
0.233951 0.549477 0.000000
0.287194 0.547715 0.000000
0.335881 0.545660 0.000000
0.381815 0.543287 0.000000
0.425936 0.540567 0.000000
0.468792 0.537476 0.000000
0.510728 0.533987 0.000000
0.551971 0.530075 0.000000
0.592674 0.525711 0.000000
0.632946 0.520870 0.000000
0.672863 0.515523 0.000000
0.712482 0.509641 0.000000
0.751844 0.503191 0.000000
0.790980 0.496138 0.000000
0.829914 0.488444 0.000000
0.868665 0.480065 0.000000
0.907246 0.470951 0.000000
0.945671 0.461044 0.000000
0.983949 0.450277 0.000000
1.000000 0.438568 0.000000
1.000000 0.425822 0.000000
1.000000 0.411920 0.000000
1.000000 0.396712 0.000000
0.000000 0.586728 0.000000
0.000000 0.586571 0.000000
0.000000 0.586391 0.000000
0.000000 0.586128 0.000000
0.000000 0.585766 0.000000
0.000000 0.585290 0.000000
0.000000 0.584684 0.000000
0.000000 0.583929 0.000000
0.000000 0.583005 0.000000
0.128852 0.581892 0.000000
0.204121 0.580566 0.000000
0.263316 0.579005 0.000000
0.315474 0.577185 0.000000
0.363689 0.575082 0.000000
0.409418 0.572672 0.000000
0.453464 0.569930 0.000000
0.496310 0.566834 0.000000
0.538269 0.563359 0.000000
0.579550 0.559483 0.000000
0.620299 0.555180 0.000000
0.660619 0.550426 0.000000
0.700585 0.545196 0.000000
0.740252 0.539463 0.000000
0.779662 0.533199 0.000000
0.818846 0.526373 0.000000
0.857828 0.518951 0.000000
0.896628 0.510896 0.000000
0.935260 0.502164 0.000000
0.973737 0.492707 0.000000
1.000000 0.482469 0.000000
1.000000 0.471384 0.000000
1.000000 0.459375 0.000000
1.000000 0.446348 0.000000
0.000000 0.617025 0.000000
0.000000 0.616884 0.000000
0.000000 0.616721 0.000000
0.000000 0.616484 0.000000
0.000000 0.616159 0.000000
0.000000 0.615732 0.000000
0.000000 0.615188 0.000000
0.000000 0.614513 0.000000
0.000000 0.613688 0.000000
0.057098 0.612694 0.000000
0.166425 0.611512 0.000000
0.235300 0.610122 0.000000
0.292400 0.608500 0.000000
0.343664 0.606627 0.000000
0.391467 0.604480 0.000000
0.437009 0.602036 0.000000
0.480981 0.599275 0.000000
0.523814 0.596175 0.000000
0.565790 0.592714 0.000000
0.607105 0.588870 0.000000
0.647896 0.584622 0.000000
0.688261 0.579947 0.000000
0.728273 0.574822 0.000000
0.767986 0.569224 0.000000
0.807443 0.563127 0.000000
0.846673 0.556503 0.000000
0.885702 0.549323 0.000000
0.924549 0.541553 0.000000
0.963229 0.533157 0.000000
1.000000 0.524093 0.000000
1.000000 0.514315 0.000000
1.000000 0.503766 0.000000
1.000000 0.492384 0.000000
0.000000 0.647300 0.000000
0.000000 0.647171 0.000000
0.000000 0.647024 0.000000
0.000000 0.646810 0.000000
0.000000 0.646515 0.000000
0.000000 0.646129 0.000000
0.000000 0.645640 0.000000
0.000000 0.645032 0.000000
0.000000 0.644291 0.000000
0.000000 0.643399 0.000000
0.113313 0.642340 0.000000
0.201178 0.641094 0.000000
0.265791 0.639643 0.000000
0.321256 0.637966 0.000000
0.371773 0.636044 0.000000
0.419213 0.633856 0.000000
0.464584 0.631383 0.000000
0.508484 0.628604 0.000000
0.551300 0.625500 0.000000
0.593291 0.622052 0.000000
0.634636 0.618238 0.000000
0.675465 0.614040 0.000000
0.715872 0.609437 0.000000
0.755929 0.604408 0.000000
0.795687 0.598932 0.000000
0.835188 0.592984 0.000000
0.874464 0.586542 0.000000
0.913538 0.579577 0.000000
0.952430 0.572062 0.000000
0.991157 0.563964 0.000000
1.000000 0.555248 0.000000
1.000000 0.545871 0.000000
1.000000 0.535790 0.000000
0.000000 0.677553 0.000000
0.000000 0.677436 0.000000
0.000000 0.677302 0.000000
0.000000 0.677107 0.000000
0.000000 0.676839 0.000000
0.000000 0.676489 0.000000
0.000000 0.676046 0.000000
0.000000 0.675496 0.000000
0.000000 0.674827 0.000000
0.000000 0.674023 0.000000
0.003146 0.673069 0.000000
0.156744 0.671947 0.000000
0.234225 0.670642 0.000000
0.295770 0.669134 0.000000
0.349925 0.667405 0.000000
0.399806 0.665438 0.000000
0.446926 0.663213 0.000000
0.492139 0.660713 0.000000
0.535971 0.657918 0.000000
0.578770 0.654812 0.000000
0.620771 0.651375 0.000000
0.662143 0.647589 0.000000
0.703007 0.643437 0.000000
0.743455 0.638900 0.000000
0.783554 0.633958 0.000000
0.823355 0.628592 0.000000
0.862900 0.622780 0.000000
0.902219 0.616501 0.000000
0.941337 0.609732 0.000000
0.980274 0.602445 0.000000
1.000000 0.594613 0.000000
1.000000 0.586204 0.000000
1.000000 0.577184 0.000000
0.000000 0.707788 0.000000
0.000000 0.707681 0.000000
0.000000 0.707558 0.000000
0.000000 0.707380 0.000000
0.000000 0.707136 0.000000
0.000000 0.706817 0.000000
0.000000 0.706413 0.000000
0.000000 0.705914 0.000000
0.000000 0.705306 0.000000
0.000000 0.704578 0.000000
0.000000 0.703714 0.000000
0.088269 0.702700 0.000000
0.194991 0.701521 0.000000
0.266109 0.700159 0.000000
0.325341 0.698598 0.000000
0.378426 0.696821 0.000000
0.427763 0.694812 0.000000
0.474600 0.692553 0.000000
0.519670 0.690028 0.000000
0.563439 0.687219 0.000000
0.606220 0.684110 0.000000
0.648230 0.680684 0.000000
0.689626 0.676925 0.000000
0.730524 0.672815 0.000000
0.771010 0.668338 0.000000
0.811149 0.663476 0.000000
0.850993 0.658210 0.000000
0.890580 0.652522 0.000000
0.929941 0.646392 0.000000
0.969102 0.639798 0.000000
1.000000 0.632717 0.000000
1.000000 0.625124 0.000000
1.000000 0.616992 0.000000
0.000000 0.738006 0.000000
0.000000 0.737908 0.000000
0.000000 0.737795 0.000000
0.000000 0.737632 0.000000
0.000000 0.737408 0.000000
0.000000 0.737116 0.000000
0.000000 0.736747 0.000000
0.000000 0.736291 0.000000
0.000000 0.735738 0.000000
0.000000 0.735075 0.000000
0.000000 0.734290 0.000000
0.000000 0.733369 0.000000
0.141554 0.732298 0.000000
0.230390 0.731063 0.000000
0.297155 0.729648 0.000000
0.354578 0.728038 0.000000
0.406771 0.726216 0.000000
0.455639 0.724168 0.000000
0.502225 0.721878 0.000000
0.547166 0.719330 0.000000
0.590877 0.716508 0.000000
0.633641 0.713397 0.000000
0.675660 0.709982 0.000000
0.717081 0.706247 0.000000
0.758011 0.702176 0.000000
0.798535 0.697754 0.000000
0.838714 0.692965 0.000000
0.878599 0.687791 0.000000
0.918228 0.682216 0.000000
0.957631 0.676221 0.000000
0.996834 0.669787 0.000000
1.000000 0.662893 0.000000
1.000000 0.655516 0.000000
0.000000 0.768209 0.000000
0.000000 0.768118 0.000000
0.000000 0.768014 0.000000
0.000000 0.767864 0.000000
0.000000 0.767658 0.000000
0.000000 0.767390 0.000000
0.000000 0.767051 0.000000
0.000000 0.766634 0.000000
0.000000 0.766127 0.000000
0.000000 0.765521 0.000000
0.000000 0.764805 0.000000
0.000000 0.763965 0.000000
0.041740 0.762990 0.000000
0.184795 0.761865 0.000000
0.263998 0.760578 0.000000
0.327578 0.759113 0.000000
0.383545 0.757456 0.000000
0.434986 0.755593 0.000000
0.483443 0.753509 0.000000
0.529804 0.751190 0.000000
0.574627 0.748620 0.000000
0.618284 0.745787 0.000000
0.661033 0.742674 0.000000
0.703061 0.739269 0.000000
0.744504 0.735556 0.000000
0.785466 0.731522 0.000000
0.826026 0.727151 0.000000
0.866244 0.722429 0.000000
0.906170 0.717340 0.000000
0.945840 0.711868 0.000000
0.985285 0.705997 0.000000
1.000000 0.699709 0.000000
1.000000 0.692985 0.000000
0.000000 0.798397 0.000000
0.000000 0.798313 0.000000
0.000000 0.798217 0.000000
0.000000 0.798078 0.000000
0.000000 0.797888 0.000000
0.000000 0.797641 0.000000
0.000000 0.797329 0.000000
0.000000 0.796945 0.000000
0.000000 0.796480 0.000000
0.000000 0.795924 0.000000
0.000000 0.795267 0.000000
0.000000 0.794499 0.000000
0.000000 0.793607 0.000000
0.118291 0.792580 0.000000
0.223366 0.791404 0.000000
0.296380 0.790067 0.000000
0.357521 0.788555 0.000000
0.412291 0.786854 0.000000
0.463086 0.784952 0.000000
0.511182 0.782835 0.000000
0.557342 0.780488 0.000000
0.602057 0.777900 0.000000
0.645664 0.775055 0.000000
0.688398 0.771942 0.000000
0.730434 0.768546 0.000000
0.771898 0.764854 0.000000
0.812890 0.760853 0.000000
0.853485 0.756530 0.000000
0.893742 0.751870 0.000000
0.933707 0.746859 0.000000
0.973417 0.741483 0.000000
1.000000 0.735726 0.000000
1.000000 0.729572 0.000000
0.000000 0.828571 0.000000
0.000000 0.828493 0.000000
0.000000 0.828404 0.000000
0.000000 0.828275 0.000000
0.000000 0.828100 0.000000
0.000000 0.827871 0.000000
0.000000 0.827583 0.000000
0.000000 0.827228 0.000000
0.000000 0.826800 0.000000
0.000000 0.826288 0.000000
0.000000 0.825685 0.000000
0.000000 0.824979 0.000000
0.000000 0.824161 0.000000
0.000000 0.823219 0.000000
0.169558 0.822142 0.000000
0.259219 0.820917 0.000000
0.327874 0.819532 0.000000
0.387085 0.817976 0.000000
0.440853 0.816234 0.000000
0.491089 0.814296 0.000000
0.538864 0.812147 0.000000
0.584841 0.809775 0.000000
0.629457 0.807169 0.000000
0.673017 0.804314 0.000000
0.715738 0.801200 0.000000
0.757780 0.797813 0.000000
0.799265 0.794141 0.000000
0.840286 0.790172 0.000000
