luts/peruano-A-noche.cube
TITLE "peruano-A-noche"
LUT_3D_SIZE 9
DOMAIN_MIN 0 0 0
DOMAIN_MAX 1 1 1
0.098791 0.040369 0.079265
0.200851 0.003050 0.064833
0.371891 0.000000 0.016878
0.518363 0.000000 0.000000
0.661864 0.000000 0.000000
0.803897 0.000000 0.000000
0.945069 0.000000 0.000000
1.000000 0.000000 0.000000
1.000000 0.000000 0.000000
0.029970 0.154968 0.012949
0.182498 0.144566 0.000000
0.343859 0.103139 0.000000
0.497589 0.000000 0.000000
0.646144 0.000000 0.000000
0.791589 0.000000 0.000000
0.935180 0.000000 0.000000
1.000000 0.000000 0.000000
1.000000 0.000000 0.000000
0.000000 0.281716 0.000000
0.135364 0.277286 0.000000
0.302487 0.263895 0.000000
0.460652 0.235620 0.000000
0.614521 0.182972 0.000000
0.765017 0.057773 0.000000
0.912927 0.000000 0.000000
1.000000 0.000000 0.000000
1.000000 0.000000 0.000000
0.000000 0.404291 0.000000
0.000000 0.402198 0.000000
0.244017 0.395949 0.000000
0.413718 0.382622 0.000000
0.573042 0.359182 0.000000
0.728117 0.321761 0.000000
0.880246 0.262653 0.000000
1.000000 0.154785 0.000000
1.000000 0.000000 0.000000
0.000000 0.526054 0.000000
0.000000 0.524846 0.000000
0.138300 0.521335 0.000000
0.354206 0.513879 0.000000
0.524367 0.500643 0.000000
0.684675 0.479748 0.000000
0.840657 0.449028 0.000000
0.993858 0.405218 0.000000
1.000000 0.341823 0.000000
0.000000 0.647300 0.000000
0.000000 0.646515 0.000000
0.000000 0.644291 0.000000
0.265791 0.639643 0.000000
0.464584 0.631383 0.000000
0.634636 0.618238 0.000000
0.795687 0.598932 0.000000
0.952430 0.572062 0.000000
1.000000 0.535790 0.000000
0.000000 0.768209 0.000000
0.000000 0.767658 0.000000
0.000000 0.766127 0.000000
0.041740 0.762990 0.000000
0.383545 0.757456 0.000000
0.574627 0.748620 0.000000
0.744504 0.735556 0.000000
0.906170 0.717340 0.000000
1.000000 0.692985 0.000000
0.000000 0.888883 0.000000
0.000000 0.888474 0.000000
0.000000 0.887357 0.000000
0.000000 0.885108 0.000000
0.251449 0.881188 0.000000
0.497530 0.874946 0.000000
0.684176 0.865679 0.000000
0.853925 0.852686 0.000000
1.000000 0.835266 0.000000
0.000000 1.000000 0.000000
0.000000 1.000000 0.000000
0.000000 1.000000 0.000000
0.000000 1.000000 0.000000
0.000000 1.000000 0.000000
0.387718 0.999024 0.000000
0.609592 0.992204 0.000000
0.793331 0.982604 0.000000
0.962983 0.969673 0.000000
0.050866 0.037608 0.219818
0.206478 0.000000 0.207741
0.374437 0.000000 0.177749
0.520635 0.000000 0.144359
0.663876 0.000000 0.113751
0.805769 0.000000 0.083079
0.946957 0.000000 0.046533
1.000000 0.000000 0.000000
1.000000 0.000000 0.000000
0.009446 0.153202 0.179524
0.187800 0.138699 0.169555
0.347330 0.094762 0.149972
0.500297 0.000000 0.125041
0.648466 0.000000 0.097348
0.793747 0.000000 0.065530
0.937297 0.000000 0.022780
1.000000 0.000000 0.000000
1.000000 0.000000 0.000000
0.000000 0.280064 0.118378
0.141862 0.275296 0.112963
0.306920 0.261362 0.100191
0.464296 0.232384 0.079439
0.617709 0.178359 0.048967
0.767862 0.042873 0.006477
0.915475 0.000000 0.000000
1.000000 0.000000 0.000000
1.000000 0.000000 0.000000
0.000000 0.403293 0.017650
0.004475 0.401072 0.010772
0.252254 0.394574 0.000000
0.419206 0.380942 0.000000
0.577332 0.357157 0.000000
0.731662 0.319281 0.000000
0.883262 0.259350 0.000000
1.000000 0.148619 0.000000
1.000000 0.000000 0.000000
0.000000 0.525344 0.000000
0.000000 0.524080 0.000000
0.155723 0.520448 0.000000
0.361587 0.512828 0.000000
0.529554 0.499411 0.000000
0.688767 0.478320 0.000000
0.844049 0.447372 0.000000
0.996750 0.403249 0.000000
1.000000 0.339318 0.000000
0.000000 0.646770 0.000000
0.000000 0.645958 0.000000
0.000000 0.643669 0.000000
0.276311 0.638927 0.000000
0.470636 0.630556 0.000000
0.639135 0.617293 0.000000
0.799327 0.597862 0.000000
0.955497 0.570855 0.000000
1.000000 0.534415 0.000000
0.000000 0.767802 0.000000
0.000000 0.767235 0.000000
0.000000 0.765668 0.000000
0.084338 0.762474 0.000000
0.390900 0.756869 0.000000
0.579499 0.747955 0.000000
0.748287 0.734810 0.000000
0.909303 0.716508 0.000000
1.000000 0.692062 0.000000
0.000000 0.888558 0.000000
0.000000 0.888140 0.000000
0.000000 0.887000 0.000000
0.000000 0.884716 0.000000
0.263014 0.880750 0.000000
0.503109 0.874454 0.000000
0.688185 0.865130 0.000000
0.857138 0.852078 0.000000
1.000000 0.834598 0.000000
0.000000 1.000000 0.000000
0.000000 1.000000 0.000000
0.000000 1.000000 0.000000
0.000000 1.000000 0.000000
0.000000 1.000000 0.000000
0.395006 0.998644 0.000000
0.614036 0.991783 0.000000
0.796701 0.982140 0.000000
0.965753 0.969165 0.000000
0.000000 0.000000 0.412407
0.197002 0.000000 0.397589
0.366540 0.000000 0.363992
0.519559 0.000000 0.327302
0.666244 0.000000 0.292273
0.809793 0.000000 0.259415
0.951687 0.000000 0.228259
1.000000 0.000000 0.197875
1.000000 0.000000 0.166890
0.000000 0.142249 0.366221
0.173145 0.125883 0.356062
0.344077 0.074867 0.335232
0.501547 0.000000 0.307960
0.651967 0.000000 0.278464
0.798335 0.000000 0.248715
0.942316 0.000000 0.219173
1.000000 0.000000 0.189390
1.000000 0.000000 0.158161
0.000000 0.276178 0.305619
0.136688 0.270726 0.300560
0.309367 0.255548 0.288820
0.468914 0.224762 0.270879
0.623108 0.167026 0.248595
0.773493 0.001344 0.223543
0.921063 0.000000 0.196467
1.000000 0.000000 0.167170
1.000000 0.000000 0.134274
0.000000 0.401093 0.245536
0.031457 0.398580 0.242290
0.261538 0.391499 0.234384
0.427213 0.377116 0.221308
0.584671 0.352447 0.203438
0.738435 0.313372 0.181228
0.889520 0.251255 0.154644
1.000000 0.132423 0.122448
1.000000 0.000000 0.080087
0.000000 0.523811 0.176243
0.000000 0.522413 0.173403
0.178278 0.518488 0.166270
0.373357 0.510460 0.153791
0.538728 0.496580 0.135228
0.696580 0.474983 0.109161
0.850928 0.443435 0.071137
1.000000 0.398490 0.005511
1.000000 0.333158 0.000000
0.000000 0.645605 0.052399
0.000000 0.644724 0.046314
0.000000 0.642278 0.029353
0.294259 0.637301 0.000158
0.481896 0.628649 0.000000
0.647962 0.615084 0.000000
0.806769 0.595332 0.000000
0.961988 0.567969 0.000000
1.000000 0.531097 0.000000
0.000000 0.766875 0.000000
0.000000 0.766271 0.000000
0.000000 0.764613 0.000000
0.137027 0.761276 0.000000
0.405422 0.755493 0.000000
0.589549 0.746380 0.000000
0.756324 0.733026 0.000000
0.916117 0.714508 0.000000
1.000000 0.689828 0.000000
0.000000 0.887799 0.000000
0.000000 0.887359 0.000000
0.000000 0.886163 0.000000
0.000000 0.883789 0.000000
0.286089 0.879705 0.000000
0.515051 0.873273 0.000000
0.696991 0.863804 0.000000
0.864327 0.850601 0.000000
1.000000 0.832966 0.000000
0.000000 1.000000 0.000000
0.000000 1.000000 0.000000
0.000000 1.000000 0.000000
0.000000 1.000000 0.000000
0.000000 1.000000 0.000000
0.410883 0.997725 0.000000
0.624025 0.990759 0.000000
0.804403 0.981006 0.000000
0.972158 0.967917 0.000000
0.000000 0.000000 0.591396
0.151520 0.000000 0.575995
0.345696 0.000000 0.546889
0.509963 0.000000 0.511538
0.663051 0.000000 0.475075
0.810421 0.000000 0.439500
0.954602 0.000000 0.405410
1.000000 0.000000 0.372813
1.000000 0.000000 0.341434
0.000000 0.120923 0.548905
0.123350 0.101699 0.539612
0.326893 0.030647 0.519624
0.494459 0.000000 0.492005
0.650268 0.000000 0.460877
0.799841 0.000000 0.428789
0.945755 0.000000 0.396954
1.000000 0.000000 0.365801
1.000000 0.000000 0.335314
0.000000 0.269225 0.490019
0.084060 0.263004 0.484888
0.296987 0.246215 0.472851
0.465744 0.212672 0.454205
0.624085 0.148349 0.430841
0.776725 0.000000 0.404667
0.925596 0.000000 0.377049
1.000000 0.000000 0.348753
1.000000 0.000000 0.320068
0.000000 0.397608 0.430033
0.000000 0.394698 0.426860
0.256054 0.386784 0.419129
0.428578 0.371268 0.406393
0.588742 0.345191 0.389234
0.743772 0.304120 0.368591
0.895467 0.238198 0.345375
1.000000 0.102430 0.320245
1.000000 0.000000 0.293528
0.000000 0.521523 0.370349
0.000000 0.519920 0.368089
0.184412 0.515538 0.362481
0.380172 0.506861 0.352934
0.546065 0.492223 0.339488
0.704064 0.469775 0.322466
0.858335 0.437204 0.302270
1.000000 0.390838 0.279206
1.000000 0.323044 0.253336
0.000000 0.643873 0.306367
0.000000 0.642880 0.304489
0.000000 0.640175 0.299775
0.309039 0.634808 0.291575
0.492933 0.625684 0.279658
0.657630 0.611602 0.263951
0.815594 0.591295 0.244390
0.970160 0.563310 0.220740
1.000000 0.525679 0.192313
0.000000 0.765471 0.227412
0.000000 0.764802 0.225482
0.000000 0.762990 0.220579
0.177457 0.759412 0.211858
0.421538 0.753322 0.198717
0.601666 0.743866 0.180449
0.766589 0.730147 0.155852
0.925216 0.711245 0.122212
1.000000 0.686151 0.070738
0.000000 0.886622 0.089364
0.000000 0.886142 0.085422
0.000000 0.884850 0.074780
0.000000 0.882320 0.052692
0.312842 0.878032 0.010050
0.530445 0.871363 0.000000
0.708894 0.861638 0.000000
0.874389 0.848169 0.000000
1.000000 0.830256 0.000000
0.000000 1.000000 0.000000
0.000000 1.000000 0.000000
0.000000 1.000000 0.000000
0.000000 1.000000 0.000000
0.000000 1.000000 0.000000
0.432096 0.996218 0.000000
0.638105 0.989067 0.000000
0.815589 0.979119 0.000000
0.981677 0.965829 0.000000
0.000000 0.000000 0.760684
0.000000 0.000000 0.749397
0.307347 0.000000 0.725669
0.489720 0.000000 0.693649
0.652244 0.000000 0.658131
0.805496 0.000000 0.621842
0.953532 0.000000 0.586063
1.000000 0.000000 0.551318
1.000000 0.000000 0.517754
0.000000 0.082501 0.727391
0.000000 0.054328 0.719321
0.290365 0.000000 0.701236
0.476303 0.000000 0.674939
0.640940 0.000000 0.643948
0.795896 0.000000 0.610931
0.945330 0.000000 0.577456
1.000000 0.000000 0.544331
1.000000 0.000000 0.511905
0.000000 0.257861 0.673005
0.000000 0.250902 0.668008
0.262353 0.232284 0.656150
0.450878 0.194911 0.637451
0.617473 0.118999 0.613570
0.774753 0.000000 0.586383
0.926546 0.000000 0.557396
1.000000 0.000000 0.527618
1.000000 0.000000 0.497640
0.000000 0.392275 0.613137
0.000000 0.388943 0.609934
0.224894 0.380103 0.602098
0.417781 0.363218 0.589112
0.585442 0.335298 0.571510
0.744326 0.291419 0.550255
0.898277 0.219678 0.526372
1.000000 0.042198 0.500730
1.000000 0.000000 0.473958
0.000000 0.518336 0.553542
0.000000 0.516486 0.551311
0.157646 0.511546 0.545770
0.374677 0.502048 0.536332
0.546531 0.486414 0.523060
0.707380 0.462808 0.506353
0.863195 0.428800 0.486772
1.000000 0.380384 0.464887
1.000000 0.308910 0.441182
0.000000 0.641599 0.494079
0.000000 0.640461 0.492381
0.000000 0.637417 0.488128
0.310957 0.631531 0.480768
0.497847 0.621766 0.470176
0.663924 0.606969 0.456459
0.822576 0.585878 0.439866
0.977453 0.557001 0.420695
1.000000 0.518267 0.399221
0.000000 0.763665 0.432060
0.000000 0.762908 0.430642
0.000000 0.760886 0.427069
0.195671 0.756974 0.420817
0.432279 0.750456 0.411676
0.611333 0.740514 0.399586
0.775797 0.726272 0.384588
0.934078 0.706815 0.366758
1.000000 0.681117 0.346149
0.000000 0.885102 0.362410
0.000000 0.884567 0.361087
0.000000 0.883141 0.357736
0.000000 0.880391 0.351820
0.333848 0.875811 0.343046
0.544376 0.868802 0.331216
0.720583 0.858705 0.316174
0.884882 0.844846 0.297737
1.000000 0.826526 0.275606
0.000000 1.000000 0.274392
0.000000 1.000000 0.272927
0.000000 1.000000 0.269194
0.000000 1.000000 0.262523
0.122177 0.999318 0.252429
0.452743 0.994180 0.238414
0.652878 0.986759 0.219826
0.827900 0.976523 0.195614
0.992546 0.962935 0.163721
0.000000 0.000000 0.929289
0.000000 0.000000 0.920622
0.239890 0.000000 0.901214
0.456375 0.000000 0.872991
0.632478 0.000000 0.839688
0.793802 0.000000 0.804121
0.947225 0.000000 0.767964
1.000000 0.000000 0.732110
1.000000 0.000000 0.696998
0.000000 0.000000 0.902667
0.000000 0.000000 0.895780
0.221597 0.000000 0.879855
0.444373 0.000000 0.855678
0.622447 0.000000 0.825981
0.785146 0.000000 0.793266
0.939695 0.000000 0.759262
1.000000 0.000000 0.725009
1.000000 0.000000 0.691088
0.000000 0.240731 0.853822
0.000000 0.232973 0.849112
0.189122 0.212080 0.837812
0.421059 0.168945 0.819679
0.601326 0.067038 0.796049
0.765924 0.000000 0.768633
0.922364 0.000000 0.738935
1.000000 0.000000 0.708063
1.000000 0.000000 0.676753
0.000000 0.384347 0.795640
0.000000 0.380619 0.792463
0.144455 0.370852 0.784659
0.390601 0.352468 0.771635
0.572211 0.322313 0.753823
0.738012 0.274690 0.732121
0.896103 0.194142 0.707546
1.000000 0.000000 0.681019
1.000000 0.000000 0.653266
0.000000 0.513865 0.735828
0.000000 0.511759 0.733583
0.039662 0.506227 0.727997
0.351261 0.495821 0.718454
0.536784 0.479032 0.704987
0.703926 0.454013 0.687979
0.863313 0.418175 0.668008
1.000000 0.367039 0.645696
1.000000 0.290391 0.621617
0.000000 0.638632 0.676478
0.000000 0.637331 0.674796
0.000000 0.633901 0.670578
0.292532 0.627412 0.663274
0.492388 0.616884 0.652759
0.663691 0.601210 0.639153
0.825172 0.579135 0.622741
0.981734 0.549111 0.603892
1.000000 0.508934 0.582992
0.000000 0.761431 0.617159
0.000000 0.760568 0.615819
0.000000 0.758294 0.612447
0.183500 0.753976 0.606554
0.432328 0.746933 0.597959
0.614835 0.736382 0.586650
0.781081 0.721477 0.572737
0.940380 0.701305 0.556410
1.000000 0.674816 0.537894
0.000000 0.883272 0.556110
0.000000 0.882667 0.554975
0.000000 0.881073 0.552107
0.000000 0.878048 0.547065
0.342354 0.873100 0.539643
0.552494 0.865656 0.529753
0.728891 0.855081 0.517401
0.893332 0.840713 0.502651
1.000000 0.821858 0.485598
0.000000 1.000000 0.490345
0.000000 1.000000 0.489313
0.000000 1.000000 0.486700
0.000000 1.000000 0.482082
0.164497 0.997129 0.475230
0.467528 0.991676 0.466006
0.664836 0.983901 0.454331
0.838731 0.973287 0.440167
1.000000 0.959304 0.423487
0.000000 0.000000 1.000000
0.000000 0.000000 1.000000
0.079825 0.000000 1.000000
0.405267 0.000000 1.000000
0.602197 0.000000 1.000000
0.774393 0.000000 0.985267
0.934856 0.000000 0.949692
1.000000 0.000000 0.913638
1.000000 0.000000 0.877764
0.000000 0.000000 1.000000
0.000000 0.000000 1.000000
0.022162 0.000000 1.000000
0.393803 0.000000 1.000000
0.593137 0.000000 1.000000
0.766570 0.000000 0.974707
0.927968 0.000000 0.941048
1.000000 0.000000 0.906492
1.000000 0.000000 0.871779
0.000000 0.216050 1.000000
0.000000 0.207183 1.000000
0.000000 0.182821 1.000000
0.370880 0.129057 1.000000
0.573778 0.000000 0.977463
0.749044 0.000000 0.950474
0.912031 0.000000 0.920741
1.000000 0.000000 0.889400
1.000000 0.000000 0.857266
0.000000 0.373104 0.977017
0.000000 0.369006 0.973926
0.000000 0.358322 0.966305
0.340627 0.338310 0.953494
0.546824 0.305454 0.935813
0.723370 0.252778 0.914050
0.887719 0.157847 0.889166
1.000000 0.000000 0.862074
1.000000 0.000000 0.833535
0.000000 0.507639 0.917819
0.000000 0.505288 0.915578
0.000000 0.499174 0.909992
0.301871 0.487837 0.900417
0.514068 0.469794 0.886844
0.691882 0.443150 0.869615
0.857197 0.405085 0.849283
1.000000 0.350450 0.826470
1.000000 0.266584 0.801775
0.000000 0.634699 0.858203
0.000000 0.633230 0.856514
0.000000 0.629399 0.852274
0.242638 0.622268 0.844921
0.473109 0.610904 0.834312
0.654677 0.594237 0.820553
0.821576 0.571011 0.803926
0.981451 0.539607 0.784809
1.000000 0.497642 0.763617
0.000000 0.758633 0.799014
0.000000 0.757657 0.797684
0.000000 0.755105 0.794334
0.116639 0.750337 0.788477
0.417374 0.742700 0.779930
0.609416 0.731450 0.768680
0.780301 0.715766 0.754846
0.942337 0.694737 0.738641
1.000000 0.667287 0.720324
0.000000 0.881082 0.739798
0.000000 0.880399 0.738704
0.000000 0.878613 0.735942
0.000000 0.875270 0.731087
0.332994 0.869896 0.723945
0.551472 0.861940 0.714446
0.731322 0.850796 0.702616
0.897721 0.835815 0.688555
1.000000 0.816307 0.672413
0.000000 1.000000 0.679311
0.000000 1.000000 0.678370
0.000000 1.000000 0.675989
0.000000 0.998498 0.671788
0.166430 0.994571 0.665572
0.472424 0.988739 0.657238
0.671093 0.980536 0.646756
0.845834 0.969461 0.634155
1.000000 0.954992 0.619500
0.000000 0.000000 1.000000
0.000000 0.000000 1.000000
0.000000 0.000000 1.000000
0.325239 0.000000 1.000000
0.558887 0.000000 1.000000
0.746190 0.000000 1.000000
0.915719 0.000000 1.000000
1.000000 0.000000 1.000000
1.000000 0.000000 1.000000
0.000000 0.000000 1.000000
0.000000 0.000000 1.000000
0.000000 0.000000 1.000000
0.312713 0.000000 1.000000
0.550430 0.000000 1.000000
0.739043 0.000000 1.000000
0.909408 0.000000 1.000000
1.000000 0.000000 1.000000
1.000000 0.000000 1.000000
0.000000 0.180391 1.000000
0.000000 0.169517 1.000000
0.000000 0.138229 1.000000
0.286549 0.052041 1.000000
0.532076 0.000000 1.000000
0.722890 0.000000 1.000000
0.894723 0.000000 1.000000
1.000000 0.000000 1.000000
1.000000 0.000000 1.000000
0.000000 0.357842 1.000000
0.000000 0.353370 1.000000
0.000000 0.341714 1.000000
0.250537 0.319831 1.000000
0.506217 0.283545 1.000000
0.699010 0.223596 1.000000
0.872167 0.099361 1.000000
1.000000 0.000000 1.000000
1.000000 0.000000 1.000000
0.000000 0.499192 1.000000
0.000000 0.496614 1.000000
0.000000 0.489946 1.000000
0.202571 0.477680 1.000000
0.474835 0.458309 1.000000
0.669620 0.429831 1.000000
0.843708 0.389090 1.000000
1.000000 0.329956 1.000000
1.000000 0.235662 0.982451
0.000000 0.629474 1.000000
0.000000 0.627842 1.000000
0.000000 0.623617 1.000000
0.116200 0.615841 1.000000
0.435762 0.603608 1.000000
0.634932 0.585872 1.000000
0.810426 0.561356 0.985069
0.975475 0.528348 0.965663
1.000000 0.484236 0.944093
0.000000 0.755068 0.980330
0.000000 0.753975 0.978997
0.000000 0.751138 0.975635
0.000000 0.745901 0.969753
0.382125 0.737632 0.961157
0.592734 0.725622 0.949826
0.771824 0.709072 0.935873
0.938618 0.687069 0.919507
1.000000 0.658500 0.900997
0.000000 0.878419 0.921254
0.000000 0.877652 0.920167
0.000000 0.875660 0.917420
0.000000 0.871975 0.912591
0.298527 0.866133 0.905483
0.538494 0.857611 0.896023
0.725940 0.845826 0.884241
0.896503 0.830146 0.870243
1.000000 0.809880 0.854190
0.000000 1.000000 0.862115
0.000000 1.000000 0.861199
0.000000 0.998583 0.858880
0.000000 0.995892 0.854790
0.113409 0.991617 0.848738
0.464047 0.985359 0.840629
0.669374 0.976668 0.830442
0.847428 0.965060 0.818217
1.000000 0.950025 0.804042
0.000000 0.000000 1.000000
0.000000 0.000000 1.000000
0.000000 0.000000 1.000000
0.170538 0.000000 1.000000
0.497841 0.000000 1.000000
0.707614 0.000000 1.000000
0.889019 0.000000 1.000000
1.000000 0.000000 1.000000
1.000000 0.000000 1.000000
0.000000 0.000000 1.000000
0.000000 0.000000 1.000000
0.000000 0.000000 1.000000
0.147513 0.000000 1.000000
0.489490 0.000000 1.000000
0.700957 0.000000 1.000000
0.883194 0.000000 1.000000
1.000000 0.000000 1.000000
1.000000 0.000000 1.000000
0.000000 0.124320 1.000000
0.000000 0.108006 1.000000
0.000000 0.050414 1.000000
0.085487 0.000000 1.000000
0.471049 0.000000 1.000000
0.685777 0.000000 1.000000
0.869567 0.000000 1.000000
1.000000 0.000000 1.000000
1.000000 0.000000 1.000000
0.000000 0.337732 1.000000
0.000000 0.332833 1.000000
0.000000 0.320023 1.000000
0.000000 0.295768 1.000000
0.444621 0.254719 1.000000
0.663117 0.182890 1.000000
0.848488 0.000000 1.000000
1.000000 0.000000 1.000000
1.000000 0.000000 1.000000
0.000000 0.488091 1.000000
0.000000 0.485300 1.000000
0.000000 0.478097 1.000000
0.000000 0.464894 1.000000
0.412400 0.444105 1.000000
0.635123 0.413537 1.000000
0.821764 0.369535 1.000000
0.993328 0.304452 1.000000
1.000000 0.193717 1.000000
0.000000 0.622633 1.000000
0.000000 0.620848 1.000000
0.000000 0.616246 1.000000
0.000000 0.607841 1.000000
0.372256 0.594730 1.000000
0.602156 0.575869 1.000000
0.790472 0.549939 1.000000
0.962895 0.515101 1.000000
1.000000 0.468435 1.000000
0.000000 0.750500 1.000000
0.000000 0.749291 1.000000
0.000000 0.746173 1.000000
0.000000 0.740467 1.000000
0.315895 0.731555 1.000000
0.562112 0.718750 1.000000
0.754196 0.701271 1.000000
0.928161 0.678196 1.000000
1.000000 0.648365 1.000000
0.000000 0.875123 1.000000
0.000000 0.874271 1.000000
0.000000 0.872069 1.000000
0.000000 0.868029 1.000000
0.220496 0.861700 1.000000
0.510378 0.852577 1.000000
0.711045 0.840101 1.000000
0.888436 0.823654 1.000000
1.000000 0.802543 1.000000
0.000000 0.998040 1.000000
0.000000 0.997417 1.000000
0.000000 0.995807 1.000000
0.000000 0.992850 1.000000
0.000000 0.988203 1.000000
0.438475 0.981483 1.000000
0.657691 0.972258 1.000000
0.842078 0.960062 0.999533
1.000000 0.944393 0.985410
