luts/peruano-B-dia.cube
TITLE "peruano-B-dia"
LUT_3D_SIZE 5
DOMAIN_MIN 0 0 0
DOMAIN_MAX 1 1 1
0.000000 0.000000 0.000000
0.281798 0.000000 0.000000
0.583186 0.000000 0.000000
0.889344 0.000000 0.000000
1.000000 0.000000 0.000000
0.000000 0.233851 0.000000
0.238557 0.228136 0.000000
0.554045 0.170633 0.000000
0.868906 0.000000 0.000000
1.000000 0.000000 0.000000
0.000000 0.511935 0.000000
0.000000 0.511059 0.000000
0.488591 0.500941 0.000000
0.820902 0.466609 0.000000
1.000000 0.390256 0.000000
0.000000 0.791768 0.000000
0.000000 0.791388 0.000000
0.362434 0.787958 0.000000
0.750135 0.775406 0.000000
1.000000 0.746946 0.000000
0.000000 1.000000 0.000000
0.000000 1.000000 0.000000
0.000000 1.000000 0.000000
0.640100 1.000000 0.000000
1.000000 1.000000 0.000000
0.000000 0.000000 0.313630
0.279830 0.000000 0.280160
0.591558 0.000000 0.232405
0.898068 0.000000 0.187755
1.000000 0.000000 0.138578
0.000000 0.233524 0.240777
0.247070 0.222896 0.228730
0.565507 0.156795 0.199597
0.878816 0.000000 0.159389
1.000000 0.000000 0.103415
0.000000 0.510988 0.132796
0.082930 0.509386 0.122942
0.505385 0.497862 0.090485
0.832401 0.462039 0.006582
1.000000 0.383579 0.000000
0.000000 0.791011 0.000000
0.000000 0.790444 0.000000
0.386869 0.786552 0.000000
0.762429 0.773441 0.000000
1.000000 0.744427 0.000000
0.000000 1.000000 0.000000
0.000000 1.000000 0.000000
0.000000 1.000000 0.000000
0.654095 1.000000 0.000000
1.000000 1.000000 0.000000
0.000000 0.000000 0.664214
0.207477 0.000000 0.639903
0.587320 0.000000 0.593066
0.907053 0.000000 0.542954
1.000000 0.000000 0.494843
0.000000 0.226958 0.603735
0.190210 0.207970 0.591918
0.567319 0.116461 0.562078
0.890145 0.000000 0.522548
1.000000 0.000000 0.479892
0.000000 0.509363 0.519563
0.058522 0.505963 0.513876
0.518447 0.490682 0.497259
0.848223 0.450512 0.470580
1.000000 0.365625 0.436581
0.000000 0.789579 0.427642
0.000000 0.788470 0.423719
0.418266 0.783225 0.411615
0.783421 0.768416 0.390253
1.000000 0.737663 0.359701
0.000000 1.000000 0.298689
0.000000 1.000000 0.294483
0.100974 1.000000 0.281006
0.682332 1.000000 0.255259
1.000000 1.000000 0.213197
0.000000 0.000000 1.000000
0.000000 0.000000 0.996294
0.542932 0.000000 0.957393
0.896608 0.000000 0.908352
1.000000 0.000000 0.857457
0.000000 0.200738 0.966872
0.000000 0.172884 0.956349
0.528060 0.000000 0.928064
0.882681 0.000000 0.887913
1.000000 0.000000 0.842813
0.000000 0.505269 0.886164
0.000000 0.499798 0.880551
0.490546 0.479616 0.863952
0.847277 0.432784 0.836985
1.000000 0.336533 0.802743
0.000000 0.787725 0.800658
0.000000 0.785827 0.797208
0.408702 0.778529 0.786590
0.791133 0.760995 0.768081
1.000000 0.727295 0.742522
0.000000 1.000000 0.711144
0.000000 1.000000 0.708611
0.162306 1.000000 0.700670
0.701605 1.000000 0.686319
1.000000 1.000000 0.665497
0.000000 0.000000 1.000000
0.000000 0.000000 1.000000
0.437607 0.000000 1.000000
0.859583 0.000000 1.000000
1.000000 0.000000 1.000000
0.000000 0.133960 1.000000
0.000000 0.081529 1.000000
0.424895 0.000000 1.000000
0.848179 0.000000 1.000000
1.000000 0.000000 1.000000
0.000000 0.494640 1.000000
0.000000 0.487376 1.000000
0.392723 0.462289 1.000000
0.818618 0.407185 1.000000
1.000000 0.292959 1.000000
0.000000 0.784211 1.000000
0.000000 0.781469 1.000000
0.316957 0.771878 1.000000
0.770993 0.751064 1.000000
1.000000 0.713525 1.000000
0.000000 1.000000 1.000000
0.000000 1.000000 1.000000
0.000000 1.000000 1.000000
0.693144 1.000000 1.000000
1.000000 1.000000 1.000000
