luts/peruano-B-dia.cube
TITLE "peruano-B-dia"
LUT_3D_SIZE 33
DOMAIN_MIN 0 0 0
DOMAIN_MAX 1 1 1
0.000000 0.000000 0.000000
0.009101 0.000000 0.000000
0.056701 0.000000 0.000000
0.100515 0.000000 0.000000
0.140695 0.000000 0.000000
0.179266 0.000000 0.000000
0.213267 0.000000 0.000000
0.247236 0.000000 0.000000
0.281798 0.000000 0.000000
0.318441 0.000000 0.000000
0.355947 0.000000 0.000000
0.393586 0.000000 0.000000
0.431337 0.000000 0.000000
0.469185 0.000000 0.000000
0.507116 0.000000 0.000000
0.545119 0.000000 0.000000
0.583186 0.000000 0.000000
0.621310 0.000000 0.000000
0.659484 0.000000 0.000000
0.697703 0.000000 0.000000
0.735963 0.000000 0.000000
0.774260 0.000000 0.000000
0.812590 0.000000 0.000000
0.850952 0.000000 0.000000
0.889344 0.000000 0.000000
0.927780 0.000000 0.000000
0.966259 0.000000 0.000000
1.000000 0.000000 0.000000
1.000000 0.000000 0.000000
1.000000 0.000000 0.000000
1.000000 0.000000 0.000000
1.000000 0.000000 0.000000
1.000000 0.000000 0.000000
0.000000 0.000000 0.000000
0.000000 0.000000 0.000000
0.048941 0.000000 0.000000
0.095767 0.000000 0.000000
0.137284 0.000000 0.000000
0.175824 0.000000 0.000000
0.208772 0.000000 0.000000
0.242525 0.000000 0.000000
0.278448 0.000000 0.000000
0.315837 0.000000 0.000000
0.353492 0.000000 0.000000
0.391281 0.000000 0.000000
0.429178 0.000000 0.000000
0.467162 0.000000 0.000000
0.505218 0.000000 0.000000
0.543337 0.000000 0.000000
0.581510 0.000000 0.000000
0.619731 0.000000 0.000000
0.657993 0.000000 0.000000
0.696294 0.000000 0.000000
0.734628 0.000000 0.000000
0.772993 0.000000 0.000000
0.811387 0.000000 0.000000
0.849806 0.000000 0.000000
0.888256 0.000000 0.000000
0.926748 0.000000 0.000000
0.965277 0.000000 0.000000
1.000000 0.000000 0.000000
1.000000 0.000000 0.000000
1.000000 0.000000 0.000000
1.000000 0.000000 0.000000
1.000000 0.000000 0.000000
1.000000 0.000000 0.000000
0.000000 0.004869 0.000000
0.000000 0.002085 0.000000
0.039036 0.000000 0.000000
0.090128 0.000000 0.000000
0.133320 0.000000 0.000000
0.170777 0.000000 0.000000
0.203375 0.000000 0.000000
0.238545 0.000000 0.000000
0.275558 0.000000 0.000000
0.313126 0.000000 0.000000
0.350901 0.000000 0.000000
0.388822 0.000000 0.000000
0.426853 0.000000 0.000000
0.464968 0.000000 0.000000
0.503149 0.000000 0.000000
0.541385 0.000000 0.000000
0.579666 0.000000 0.000000
0.617988 0.000000 0.000000
0.656344 0.000000 0.000000
0.694730 0.000000 0.000000
0.733144 0.000000 0.000000
0.771583 0.000000 0.000000
0.810044 0.000000 0.000000
0.848527 0.000000 0.000000
0.887042 0.000000 0.000000
0.925594 0.000000 0.000000
0.964179 0.000000 0.000000
1.000000 0.000000 0.000000
1.000000 0.000000 0.000000
1.000000 0.000000 0.000000
1.000000 0.000000 0.000000
1.000000 0.000000 0.000000
1.000000 0.000000 0.000000
0.000000 0.061853 0.000000
0.000000 0.059765 0.000000
0.023846 0.057336 0.000000
0.081461 0.053719 0.000000
0.127136 0.048462 0.000000
0.163253 0.044117 0.000000
0.198013 0.036052 0.000000
0.234629 0.020315 0.000000
0.271904 0.000161 0.000000
0.309553 0.000000 0.000000
0.347451 0.000000 0.000000
0.385518 0.000000 0.000000
0.423703 0.000000 0.000000
0.461974 0.000000 0.000000
0.500308 0.000000 0.000000
0.538690 0.000000 0.000000
0.577111 0.000000 0.000000
0.615563 0.000000 0.000000
0.654041 0.000000 0.000000
0.692542 0.000000 0.000000
0.731062 0.000000 0.000000
0.769600 0.000000 0.000000
0.808153 0.000000 0.000000
0.846727 0.000000 0.000000
0.885332 0.000000 0.000000
0.923966 0.000000 0.000000
0.962626 0.000000 0.000000
1.000000 0.000000 0.000000
1.000000 0.000000 0.000000
1.000000 0.000000 0.000000
1.000000 0.000000 0.000000
1.000000 0.000000 0.000000
1.000000 0.000000 0.000000
0.000000 0.107641 0.000000
0.000000 0.105519 0.000000
0.010647 0.102811 0.000000
0.076174 0.098433 0.000000
0.121591 0.093632 0.000000
0.157474 0.089438 0.000000
0.193334 0.083624 0.000000
0.230067 0.075090 0.000000
0.267401 0.062822 0.000000
0.305148 0.044712 0.000000
0.343175 0.018559 0.000000
0.381394 0.000000 0.000000
0.419744 0.000000 0.000000
0.458185 0.000000 0.000000
0.496690 0.000000 0.000000
0.535240 0.000000 0.000000
0.573823 0.000000 0.000000
0.612430 0.000000 0.000000
0.651055 0.000000 0.000000
0.689694 0.000000 0.000000
0.728345 0.000000 0.000000
0.767005 0.000000 0.000000
0.805676 0.000000 0.000000
0.844370 0.000000 0.000000
0.883088 0.000000 0.000000
0.921826 0.000000 0.000000
0.960583 0.000000 0.000000
0.999356 0.000000 0.000000
1.000000 0.000000 0.000000
1.000000 0.000000 0.000000
1.000000 0.000000 0.000000
1.000000 0.000000 0.000000
1.000000 0.000000 0.000000
0.000000 0.138350 0.000000
0.000000 0.135894 0.000000
0.020377 0.133463 0.000000
0.075800 0.130913 0.000000
0.115321 0.128894 0.000000
0.151012 0.126741 0.000000
0.187421 0.123316 0.000000
0.224461 0.118312 0.000000
0.262001 0.111370 0.000000
0.299920 0.102011 0.000000
0.338114 0.089479 0.000000
0.376505 0.072377 0.000000
0.415033 0.047378 0.000000
0.453655 0.010356 0.000000
0.492343 0.000000 0.000000
0.531074 0.000000 0.000000
0.569833 0.000000 0.000000
0.608611 0.000000 0.000000
0.647400 0.000000 0.000000
0.686197 0.000000 0.000000
0.724997 0.000000 0.000000
0.763801 0.000000 0.000000
0.802621 0.000000 0.000000
0.841457 0.000000 0.000000
0.880307 0.000000 0.000000
0.919168 0.000000 0.000000
0.958039 0.000000 0.000000
0.996919 0.000000 0.000000
1.000000 0.000000 0.000000
1.000000 0.000000 0.000000
1.000000 0.000000 0.000000
1.000000 0.000000 0.000000
1.000000 0.000000 0.000000
0.000000 0.167266 0.000000
0.000000 0.166226 0.000000
0.015917 0.165370 0.000000
0.064234 0.164651 0.000000
0.104007 0.163947 0.000000
0.142056 0.162615 0.000000
0.179756 0.160439 0.000000
0.217547 0.157212 0.000000
0.255560 0.152720 0.000000
0.293807 0.146732 0.000000
0.332259 0.138964 0.000000
0.370872 0.129033 0.000000
0.409607 0.116358 0.000000
0.448429 0.099949 0.000000
0.487312 0.077817 0.000000
0.526234 0.044484 0.000000
0.565181 0.000000 0.000000
0.604141 0.000000 0.000000
0.643107 0.000000 0.000000
0.682074 0.000000 0.000000
0.721043 0.000000 0.000000
0.760023 0.000000 0.000000
0.799011 0.000000 0.000000
0.838004 0.000000 0.000000
0.877000 0.000000 0.000000
0.915999 0.000000 0.000000
0.954999 0.000000 0.000000
0.994001 0.000000 0.000000
1.000000 0.000000 0.000000
1.000000 0.000000 0.000000
1.000000 0.000000 0.000000
1.000000 0.000000 0.000000
1.000000 0.000000 0.000000
0.000000 0.199554 0.000000
0.000000 0.199404 0.000000
0.000000 0.199361 0.000000
0.036479 0.199194 0.000000
0.087154 0.198753 0.000000
0.129712 0.197886 0.000000
0.169790 0.196435 0.000000
0.208969 0.194243 0.000000
0.247847 0.191154 0.000000
0.286670 0.187014 0.000000
0.325534 0.181661 0.000000
0.364467 0.174905 0.000000
0.403469 0.166515 0.000000
0.442529 0.156173 0.000000
0.481631 0.143421 0.000000
0.520761 0.127523 0.000000
0.559907 0.107161 0.000000
0.599060 0.079460 0.000000
0.638215 0.034877 0.000000
0.677378 0.000000 0.000000
0.716545 0.000000 0.000000
0.755712 0.000000 0.000000
0.794876 0.000000 0.000000
0.834036 0.000000 0.000000
0.873190 0.000000 0.000000
0.912338 0.000000 0.000000
0.951479 0.000000 0.000000
0.990613 0.000000 0.000000
1.000000 0.000000 0.000000
1.000000 0.000000 0.000000
1.000000 0.000000 0.000000
1.000000 0.000000 0.000000
1.000000 0.000000 0.000000
0.000000 0.233851 0.000000
0.000000 0.233890 0.000000
0.000000 0.233879 0.000000
0.000000 0.233773 0.000000
0.060821 0.233481 0.000000
0.112570 0.232893 0.000000
0.156782 0.231888 0.000000
0.198265 0.230343 0.000000
0.238557 0.228136 0.000000
0.278306 0.225150 0.000000
0.317810 0.221268 0.000000
0.357213 0.216366 0.000000
0.396582 0.210312 0.000000
0.435943 0.202947 0.000000
0.475306 0.194073 0.000000
0.514672 0.183427 0.000000
0.554045 0.170633 0.000000
0.593424 0.155124 0.000000
0.632804 0.135960 0.000000
0.672181 0.111365 0.000000
0.711550 0.077052 0.000000
0.750908 0.017691 0.000000
0.790255 0.000000 0.000000
0.829587 0.000000 0.000000
0.868906 0.000000 0.000000
0.908210 0.000000 0.000000
0.947499 0.000000 0.000000
0.986775 0.000000 0.000000
1.000000 0.000000 0.000000
1.000000 0.000000 0.000000
1.000000 0.000000 0.000000
1.000000 0.000000 0.000000
1.000000 0.000000 0.000000
0.000000 0.268455 0.000000
0.000000 0.268482 0.000000
0.000000 0.268476 0.000000
0.000000 0.268404 0.000000
0.014568 0.268202 0.000000
0.087821 0.267787 0.000000
0.139606 0.267068 0.000000
0.184818 0.265947 0.000000
0.227299 0.264325 0.000000
0.268450 0.262108 0.000000
0.308907 0.259201 0.000000
0.348990 0.255513 0.000000
0.388869 0.250949 0.000000
0.428642 0.245407 0.000000
0.468356 0.238771 0.000000
0.508033 0.230905 0.000000
0.547686 0.221637 0.000000
0.587318 0.210742 0.000000
0.626932 0.197911 0.000000
0.666526 0.182694 0.000000
0.706100 0.164390 0.000000
0.745653 0.141794 0.000000
0.785184 0.112475 0.000000
0.824693 0.069741 0.000000
0.864179 0.000000 0.000000
0.903644 0.000000 0.000000
0.943087 0.000000 0.000000
0.982509 0.000000 0.000000
1.000000 0.000000 0.000000
1.000000 0.000000 0.000000
1.000000 0.000000 0.000000
1.000000 0.000000 0.000000
1.000000 0.000000 0.000000
0.000000 0.303130 0.000000
0.000000 0.303148 0.000000
0.000000 0.303143 0.000000
0.000000 0.303092 0.000000
0.000000 0.302945 0.000000
0.047100 0.302643 0.000000
0.116248 0.302113 0.000000
0.167757 0.301277 0.000000
0.213605 0.300055 0.000000
0.256836 0.298369 0.000000
0.298685 0.296139 0.000000
0.339754 0.293291 0.000000
0.380365 0.289750 0.000000
0.420697 0.285441 0.000000
0.460854 0.280283 0.000000
0.500897 0.274190 0.000000
0.540861 0.267060 0.000000
0.580767 0.258774 0.000000
0.620627 0.249181 0.000000
0.660447 0.238088 0.000000
0.700231 0.225235 0.000000
0.739981 0.210256 0.000000
0.779699 0.192609 0.000000
0.819386 0.171424 0.000000
0.859043 0.145139 0.000000
0.898671 0.110362 0.000000
0.938270 0.055805 0.000000
0.977842 0.000000 0.000000
1.000000 0.000000 0.000000
1.000000 0.000000 0.000000
1.000000 0.000000 0.000000
1.000000 0.000000 0.000000
1.000000 0.000000 0.000000
0.000000 0.337854 0.000000
0.000000 0.337866 0.000000
0.000000 0.337860 0.000000
0.000000 0.337819 0.000000
0.000000 0.337708 0.000000
0.000000 0.337478 0.000000
0.082861 0.337075 0.000000
0.146172 0.336435 0.000000
0.197191 0.335494 0.000000
0.243376 0.334184 0.000000
0.287120 0.332440 0.000000
0.329490 0.330199 0.000000
0.371036 0.327397 0.000000
0.412067 0.323974 0.000000
0.452766 0.319867 0.000000
0.493242 0.315013 0.000000
0.533565 0.309342 0.000000
0.573777 0.302777 0.000000
0.613904 0.295229 0.000000
0.653963 0.286590 0.000000
0.693967 0.276728 0.000000
0.733920 0.265476 0.000000
0.773830 0.252611 0.000000
0.813698 0.237832 0.000000
0.853527 0.220705 0.000000
0.893319 0.200577 0.000000
0.933077 0.176360 0.000000
0.972800 0.146012 0.000000
1.000000 0.104647 0.000000
1.000000 0.030689 0.000000
1.000000 0.000000 0.000000
1.000000 0.000000 0.000000
1.000000 0.000000 0.000000
0.000000 0.372609 0.000000
0.000000 0.372616 0.000000
0.000000 0.372609 0.000000
0.000000 0.372575 0.000000
0.000000 0.372486 0.000000
0.000000 0.372307 0.000000
0.023707 0.371992 0.000000
0.117736 0.371492 0.000000
0.177220 0.370752 0.000000
0.227634 0.369718 0.000000
0.273936 0.368332 0.000000
0.318005 0.366540 0.000000
0.360748 0.364288 0.000000
0.402659 0.361525 0.000000
0.444025 0.358198 0.000000
0.485026 0.354256 0.000000
0.525772 0.349647 0.000000
0.566335 0.344315 0.000000
0.606762 0.338197 0.000000
0.647084 0.331224 0.000000
0.687322 0.323317 0.000000
0.727490 0.314378 0.000000
0.767597 0.304292 0.000000
0.807651 0.292909 0.000000
0.847655 0.280041 0.000000
0.887614 0.265431 0.000000
0.927531 0.248730 0.000000
0.967408 0.229425 0.000000
1.000000 0.206721 0.000000
1.000000 0.179256 0.000000
1.000000 0.144311 0.000000
1.000000 0.094543 0.000000
1.000000 0.000000 0.000000
0.000000 0.407396 0.000000
0.000000 0.407398 0.000000
0.000000 0.407391 0.000000
0.000000 0.407361 0.000000
0.000000 0.407288 0.000000
0.000000 0.407144 0.000000
0.000000 0.406892 0.000000
0.075917 0.406493 0.000000
0.152129 0.405902 0.000000
0.208938 0.405071 0.000000
0.258759 0.403954 0.000000
0.305063 0.402501 0.000000
0.349339 0.400668 0.000000
0.392355 0.398408 0.000000
0.434549 0.395676 0.000000
0.476188 0.392430 0.000000
0.517440 0.388626 0.000000
0.558415 0.384219 0.000000
0.599187 0.379163 0.000000
0.639804 0.373408 0.000000
0.680300 0.366898 0.000000
0.720699 0.359570 0.000000
0.761015 0.351352 0.000000
0.801262 0.342157 0.000000
0.841447 0.331880 0.000000
0.881577 0.320390 0.000000
0.921656 0.307523 0.000000
0.961688 0.293061 0.000000
1.000000 0.276713 0.000000
1.000000 0.258070 0.000000
1.000000 0.236525 0.000000
1.000000 0.211110 0.000000
1.000000 0.180102 0.000000
0.000000 0.442213 0.000000
0.000000 0.442212 0.000000
0.000000 0.442204 0.000000
0.000000 0.442177 0.000000
0.000000 0.442116 0.000000
0.000000 0.441996 0.000000
0.000000 0.441791 0.000000
0.000000 0.441466 0.000000
0.118664 0.440986 0.000000
0.186228 0.440309 0.000000
0.241077 0.439396 0.000000
0.290360 0.438204 0.000000
0.336608 0.436694 0.000000
0.381014 0.434825 0.000000
0.424233 0.432557 0.000000
0.466652 0.429853 0.000000
0.508514 0.426676 0.000000
0.549979 0.422987 0.000000
0.591153 0.418750 0.000000
0.632108 0.413925 0.000000
0.672894 0.408469 0.000000
0.713546 0.402338 0.000000
0.754089 0.395482 0.000000
0.794542 0.387842 0.000000
0.834917 0.379353 0.000000
0.875223 0.369936 0.000000
0.915468 0.359496 0.000000
0.955658 0.347917 0.000000
0.995797 0.335054 0.000000
1.000000 0.320722 0.000000
1.000000 0.304674 0.000000
1.000000 0.286576 0.000000
1.000000 0.265951 0.000000
0.000000 0.477060 0.000000
0.000000 0.477057 0.000000
0.000000 0.477048 0.000000
0.000000 0.477023 0.000000
0.000000 0.476969 0.000000
0.000000 0.476869 0.000000
0.000000 0.476698 0.000000
0.000000 0.476429 0.000000
0.066849 0.476032 0.000000
0.157606 0.475474 0.000000
0.220133 0.474718 0.000000
0.273494 0.473729 0.000000
0.322303 0.472472 0.000000
0.368465 0.470910 0.000000
0.412953 0.469009 0.000000
0.456326 0.466735 0.000000
0.498925 0.464055 0.000000
0.540974 0.460937 0.000000
0.582621 0.457347 0.000000
0.623968 0.453254 0.000000
0.665085 0.448624 0.000000
0.706022 0.443420 0.000000
0.746815 0.437607 0.000000
0.787491 0.431141 0.000000
0.828068 0.423977 0.000000
0.868561 0.416061 0.000000
0.908979 0.407333 0.000000
0.949332 0.397722 0.000000
0.989625 0.387141 0.000000
1.000000 0.375488 0.000000
1.000000 0.362633 0.000000
1.000000 0.348416 0.000000
1.000000 0.332626 0.000000
0.000000 0.511935 0.000000
0.000000 0.511930 0.000000
0.000000 0.511920 0.000000
0.000000 0.511897 0.000000
0.000000 0.511849 0.000000
0.000000 0.511762 0.000000
0.000000 0.511617 0.000000
0.000000 0.511392 0.000000
0.000000 0.511059 0.000000
0.118859 0.510592 0.000000
0.194703 0.509959 0.000000
0.253903 0.509130 0.000000
0.306104 0.508073 0.000000
0.354499 0.506756 0.000000
0.400564 0.505149 0.000000
0.445101 0.503220 0.000000
0.488591 0.500941 0.000000
0.531338 0.498282 0.000000
0.573545 0.495214 0.000000
0.615349 0.491710 0.000000
0.656848 0.487741 0.000000
0.698109 0.483278 0.000000
0.739183 0.478290 0.000000
0.780105 0.472745 0.000000
0.820902 0.466609 0.000000
0.861594 0.459842 0.000000
0.902195 0.452402 0.000000
0.942718 0.444241 0.000000
0.983171 0.435302 0.000000
1.000000 0.425520 0.000000
1.000000 0.414818 0.000000
1.000000 0.403101 0.000000
1.000000 0.390256 0.000000
0.000000 0.546836 0.000000
0.000000 0.546830 0.000000
0.000000 0.546820 0.000000
0.000000 0.546798 0.000000
0.000000 0.546755 0.000000
0.000000 0.546678 0.000000
0.000000 0.546553 0.000000
0.000000 0.546361 0.000000
0.000000 0.546078 0.000000
0.054634 0.545683 0.000000
0.162512 0.545147 0.000000
0.230741 0.544445 0.000000
0.287578 0.543548 0.000000
0.338852 0.542429 0.000000
0.386886 0.541058 0.000000
0.432850 0.539410 0.000000
0.477415 0.537457 0.000000
0.520997 0.535172 0.000000
0.563866 0.532532 0.000000
0.606207 0.529509 0.000000
0.648149 0.526079 0.000000
0.689783 0.522218 0.000000
0.731174 0.517900 0.000000
0.772371 0.513097 0.000000
0.813411 0.507783 0.000000
0.854320 0.501928 0.000000
0.895118 0.495499 0.000000
0.935821 0.488461 0.000000
0.976441 0.480774 0.000000
1.000000 0.472393 0.000000
1.000000 0.463266 0.000000
1.000000 0.453333 0.000000
1.000000 0.442524 0.000000
0.000000 0.581762 0.000000
0.000000 0.581756 0.000000
0.000000 0.581745 0.000000
0.000000 0.581723 0.000000
0.000000 0.581684 0.000000
0.000000 0.581616 0.000000
0.000000 0.581506 0.000000
0.000000 0.581340 0.000000
0.000000 0.581097 0.000000
0.000000 0.580758 0.000000
0.118165 0.580301 0.000000
0.202602 0.579700 0.000000
0.266107 0.578933 0.000000
0.321182 0.577973 0.000000
0.371701 0.576796 0.000000
0.419420 0.575377 0.000000
0.465286 0.573692 0.000000
0.509864 0.571717 0.000000
0.553518 0.569428 0.000000
0.596490 0.566804 0.000000
0.638947 0.563821 0.000000
0.681010 0.560457 0.000000
0.722764 0.556690 0.000000
0.764273 0.552498 0.000000
0.805583 0.547857 0.000000
0.846731 0.542744 0.000000
0.887744 0.537132 0.000000
0.928641 0.530993 0.000000
0.969439 0.524299 0.000000
1.000000 0.517015 0.000000
1.000000 0.509105 0.000000
1.000000 0.500526 0.000000
1.000000 0.491230 0.000000
0.000000 0.616712 0.000000
0.000000 0.616704 0.000000
0.000000 0.616693 0.000000
0.000000 0.616673 0.000000
0.000000 0.616636 0.000000
0.000000 0.616574 0.000000
0.000000 0.616477 0.000000
0.000000 0.616331 0.000000
0.000000 0.616121 0.000000
0.000000 0.615827 0.000000
0.037210 0.615432 0.000000
0.166781 0.614914 0.000000
0.240748 0.614252 0.000000
0.301020 0.613423 0.000000
0.354732 0.612405 0.000000
0.404627 0.611176 0.000000
0.452071 0.609713 0.000000
0.497842 0.607994 0.000000
0.542425 0.606000 0.000000
0.586136 0.603707 0.000000
0.629194 0.601097 0.000000
0.671753 0.598149 0.000000
0.713923 0.594844 0.000000
0.755785 0.591161 0.000000
0.797401 0.587080 0.000000
0.838815 0.582582 0.000000
0.880063 0.577643 0.000000
0.921172 0.572243 0.000000
0.962161 0.566358 0.000000
1.000000 0.559960 0.000000
1.000000 0.553023 0.000000
1.000000 0.545516 0.000000
1.000000 0.537402 0.000000
0.000000 0.651683 0.000000
0.000000 0.651675 0.000000
0.000000 0.651664 0.000000
0.000000 0.651644 0.000000
0.000000 0.651610 0.000000
0.000000 0.651553 0.000000
0.000000 0.651466 0.000000
0.000000 0.651337 0.000000
0.000000 0.651152 0.000000
0.000000 0.650895 0.000000
0.000000 0.650551 0.000000
0.116425 0.650100 0.000000
0.209897 0.649525 0.000000
0.277693 0.648803 0.000000
0.335613 0.647917 0.000000
0.388242 0.646845 0.000000
0.437613 0.645568 0.000000
0.484815 0.644064 0.000000
0.530497 0.642316 0.000000
0.575077 0.640303 0.000000
0.618835 0.638008 0.000000
0.661967 0.635411 0.000000
0.704615 0.632494 0.000000
0.746880 0.629241 0.000000
0.788841 0.625632 0.000000
0.830554 0.621651 0.000000
0.872064 0.617278 0.000000
0.913405 0.612495 0.000000
0.954603 0.607281 0.000000
0.995679 0.601617 0.000000
1.000000 0.595480 0.000000
1.000000 0.588844 0.000000
1.000000 0.581685 0.000000
0.000000 0.686675 0.000000
0.000000 0.686667 0.000000
0.000000 0.686656 0.000000
0.000000 0.686636 0.000000
0.000000 0.686603 0.000000
0.000000 0.686552 0.000000
0.000000 0.686473 0.000000
0.000000 0.686357 0.000000
0.000000 0.686192 0.000000
0.000000 0.685966 0.000000
0.000000 0.685664 0.000000
0.014823 0.685269 0.000000
0.170361 0.684764 0.000000
0.250151 0.684133 0.000000
0.313839 0.683356 0.000000
0.369970 0.682416 0.000000
0.421719 0.681294 0.000000
0.470646 0.679972 0.000000
0.517635 0.678431 0.000000
0.563234 0.676656 0.000000
0.607807 0.674627 0.000000
0.651603 0.672328 0.000000
0.694799 0.669743 0.000000
0.737525 0.666855 0.000000
0.779877 0.663648 0.000000
0.821927 0.660106 0.000000
0.863729 0.656213 0.000000
0.905328 0.651953 0.000000
0.946755 0.647307 0.000000
0.988038 0.642260 0.000000
1.000000 0.636791 0.000000
1.000000 0.630883 0.000000
1.000000 0.624512 0.000000
0.000000 0.721686 0.000000
0.000000 0.721678 0.000000
0.000000 0.721666 0.000000
0.000000 0.721647 0.000000
0.000000 0.721616 0.000000
0.000000 0.721568 0.000000
0.000000 0.721496 0.000000
0.000000 0.721391 0.000000
0.000000 0.721244 0.000000
0.000000 0.721043 0.000000
0.000000 0.720775 0.000000
0.000000 0.720426 0.000000
0.113462 0.719981 0.000000
0.216571 0.719424 0.000000
0.288672 0.718739 0.000000
0.349420 0.717910 0.000000
0.404148 0.716919 0.000000
0.455171 0.715751 0.000000
0.503716 0.714388 0.000000
0.550515 0.712814 0.000000
0.596037 0.711013 0.000000
0.640601 0.708969 0.000000
0.684428 0.706668 0.000000
0.727679 0.704093 0.000000
0.770475 0.701231 0.000000
0.812904 0.698067 0.000000
0.855035 0.694585 0.000000
0.896920 0.690772 0.000000
0.938600 0.686612 0.000000
0.980108 0.682090 0.000000
1.000000 0.677190 0.000000
1.000000 0.671896 0.000000
1.000000 0.666191 0.000000
0.000000 0.756717 0.000000
0.000000 0.756708 0.000000
0.000000 0.756697 0.000000
0.000000 0.756679 0.000000
0.000000 0.756649 0.000000
0.000000 0.756604 0.000000
0.000000 0.756537 0.000000
0.000000 0.756442 0.000000
0.000000 0.756309 0.000000
0.000000 0.756129 0.000000
0.000000 0.755889 0.000000
0.000000 0.755579 0.000000
0.000000 0.755184 0.000000
0.173080 0.754690 0.000000
0.258869 0.754083 0.000000
0.325988 0.753347 0.000000
0.384539 0.752468 0.000000
0.438145 0.751430 0.000000
0.488563 0.750218 0.000000
0.536781 0.748817 0.000000
0.583414 0.747212 0.000000
0.628867 0.745388 0.000000
0.673421 0.743331 0.000000
0.717275 0.741027 0.000000
0.760577 0.738463 0.000000
0.803436 0.735624 0.000000
0.845937 0.732498 0.000000
0.888143 0.729071 0.000000
0.930105 0.725330 0.000000
0.971862 0.721261 0.000000
1.000000 0.716850 0.000000
1.000000 0.712083 0.000000
1.000000 0.706946 0.000000
0.000000 0.791768 0.000000
0.000000 0.791759 0.000000
0.000000 0.791747 0.000000
0.000000 0.791729 0.000000
0.000000 0.791701 0.000000
0.000000 0.791658 0.000000
0.000000 0.791597 0.000000
0.000000 0.791509 0.000000
0.000000 0.791388 0.000000
0.000000 0.791225 0.000000
0.000000 0.791010 0.000000
0.000000 0.790732 0.000000
0.000000 0.790379 0.000000
0.108355 0.789938 0.000000
0.222274 0.789397 0.000000
0.298814 0.788741 0.000000
0.362434 0.787958 0.000000
0.419286 0.787032 0.000000
0.471981 0.785949 0.000000
0.521891 0.784697 0.000000
0.569829 0.783260 0.000000
0.616317 0.781626 0.000000
0.661710 0.779781 0.000000
0.706256 0.777712 0.000000
0.750135 0.775406 0.000000
0.793484 0.772851 0.000000
0.836403 0.770034 0.000000
0.878970 0.766943 0.000000
0.921247 0.763565 0.000000
0.963282 0.759889 0.000000
1.000000 0.755903 0.000000
1.000000 0.751592 0.000000
1.000000 0.746946 0.000000
0.000000 0.826836 0.000000
0.000000 0.826827 0.000000
0.000000 0.826816 0.000000
0.000000 0.826798 0.000000
0.000000 0.826771 0.000000
0.000000 0.826730 0.000000
0.000000 0.826673 0.000000
0.000000 0.826592 0.000000
0.000000 0.826481 0.000000
0.000000 0.826333 0.000000
0.000000 0.826138 0.000000
0.000000 0.825888 0.000000
0.000000 0.825570 0.000000
0.000000 0.825175 0.000000
0.174317 0.824690 0.000000
0.266555 0.824102 0.000000
0.337222 0.823400 0.000000
0.398248 0.822570 0.000000
0.453750 0.821600 0.000000
0.505690 0.820476 0.000000
0.555168 0.819186 0.000000
0.602864 0.817716 0.000000
0.649226 0.816055 0.000000
0.694565 0.814191 0.000000
0.739105 0.812111 0.000000
0.783008 0.809803 0.000000
0.826400 0.807256 0.000000
0.869375 0.804459 0.000000
0.912005 0.801400 0.000000
0.954350 0.798067 0.000000
0.996453 0.794451 0.000000
1.000000 0.790540 0.000000
1.000000 0.786321 0.000000
0.000000 0.861921 0.000000
0.000000 0.861912 0.000000
0.000000 0.861901 0.000000
0.000000 0.861884 0.000000
0.000000 0.861857 0.000000
0.000000 0.861819 0.000000
0.000000 0.861765 0.000000
0.000000 0.861690 0.000000
0.000000 0.861588 0.000000
0.000000 0.861452 0.000000
0.000000 0.861275 0.000000
0.000000 0.861047 0.000000
0.000000 0.860761 0.000000
0.000000 0.860404 0.000000
0.100083 0.859967 0.000000
0.226765 0.859438 0.000000
0.307981 0.858807 0.000000
0.374562 0.858060 0.000000
0.433589 0.857186 0.000000
0.487993 0.856174 0.000000
0.539299 0.855010 0.000000
0.588406 0.853685 0.000000
0.635890 0.852185 0.000000
0.682140 0.850499 0.000000
0.727432 0.848616 0.000000
0.771966 0.846526 0.000000
0.815893 0.844216 0.000000
0.859325 0.841677 0.000000
