luts/peruano-B-dia.cube
TITLE "peruano-B-dia"
LUT_3D_SIZE 9
DOMAIN_MIN 0 0 0
DOMAIN_MAX 1 1 1
0.000000 0.000000 0.000000
0.140695 0.000000 0.000000
0.281798 0.000000 0.000000
0.431337 0.000000 0.000000
0.583186 0.000000 0.000000
0.735963 0.000000 0.000000
0.889344 0.000000 0.000000
1.000000 0.000000 0.000000
1.000000 0.000000 0.000000
0.000000 0.107641 0.000000
0.121591 0.093632 0.000000
0.267401 0.062822 0.000000
0.419744 0.000000 0.000000
0.573823 0.000000 0.000000
0.728345 0.000000 0.000000
0.883088 0.000000 0.000000
1.000000 0.000000 0.000000
1.000000 0.000000 0.000000
0.000000 0.233851 0.000000
0.060821 0.233481 0.000000
0.238557 0.228136 0.000000
0.396582 0.210312 0.000000
0.554045 0.170633 0.000000
0.711550 0.077052 0.000000
0.868906 0.000000 0.000000
1.000000 0.000000 0.000000
1.000000 0.000000 0.000000
0.000000 0.372609 0.000000
0.000000 0.372486 0.000000
0.177220 0.370752 0.000000
0.360748 0.364288 0.000000
0.525772 0.349647 0.000000
0.687322 0.323317 0.000000
0.847655 0.280041 0.000000
1.000000 0.206721 0.000000
1.000000 0.000000 0.000000
0.000000 0.511935 0.000000
0.000000 0.511849 0.000000
0.000000 0.511059 0.000000
0.306104 0.508073 0.000000
0.488591 0.500941 0.000000
0.656848 0.487741 0.000000
0.820902 0.466609 0.000000
0.983171 0.435302 0.000000
1.000000 0.390256 0.000000
0.000000 0.651683 0.000000
0.000000 0.651610 0.000000
0.000000 0.651152 0.000000
0.209897 0.649525 0.000000
0.437613 0.645568 0.000000
0.618835 0.638008 0.000000
0.788841 0.625632 0.000000
0.954603 0.607281 0.000000
1.000000 0.581685 0.000000
0.000000 0.791768 0.000000
0.000000 0.791701 0.000000
0.000000 0.791388 0.000000
0.000000 0.790379 0.000000
0.362434 0.787958 0.000000
0.569829 0.783260 0.000000
0.750135 0.775406 0.000000
0.921247 0.763565 0.000000
1.000000 0.746946 0.000000
0.000000 0.932138 0.000000
0.000000 0.932077 0.000000
0.000000 0.931839 0.000000
0.000000 0.931146 0.000000
0.230049 0.929540 0.000000
0.503252 0.926426 0.000000
0.701924 0.921155 0.000000
0.881693 0.913088 0.000000
1.000000 0.901622 0.000000
0.000000 1.000000 0.000000
0.000000 1.000000 0.000000
0.000000 1.000000 0.000000
0.000000 1.000000 0.000000
0.000000 1.000000 0.000000
0.406059 1.000000 0.000000
0.640100 1.000000 0.000000
0.833966 1.000000 0.000000
1.000000 1.000000 0.000000
0.000000 0.000000 0.132926
0.139689 0.000000 0.124473
0.281270 0.000000 0.103113
0.432306 0.000000 0.080633
0.584541 0.000000 0.054734
0.737588 0.000000 0.021173
0.891245 0.000000 0.000000
1.000000 0.000000 0.000000
1.000000 0.000000 0.000000
0.000000 0.102793 0.103372
0.112542 0.091369 0.096628
0.266881 0.056511 0.082798
0.420924 0.000000 0.062698
0.575489 0.000000 0.034442
0.730283 0.000000 0.001148
0.885231 0.000000 0.000000
1.000000 0.000000 0.000000
1.000000 0.000000 0.000000
0.000000 0.234187 0.051913
0.049878 0.233202 0.045919
0.239327 0.226918 0.030980
0.398907 0.208114 0.008641
0.556746 0.167074 0.000000
0.714272 0.067968 0.000000
0.871512 0.000000 0.000000
1.000000 0.000000 0.000000
1.000000 0.000000 0.000000
0.000000 0.372438 0.000000
0.000000 0.372136 0.000000
0.184807 0.370058 0.000000
0.365811 0.363188 0.000000
0.529944 0.348140 0.000000
0.690906 0.321362 0.000000
0.850793 0.277454 0.000000
1.000000 0.202759 0.000000
1.000000 0.000000 0.000000
0.000000 0.511635 0.000000
0.000000 0.511482 0.000000
0.012990 0.510547 0.000000
0.314394 0.507365 0.000000
0.494148 0.500023 0.000000
0.661208 0.486615 0.000000
0.824526 0.465267 0.000000
0.986275 0.433709 0.000000
1.000000 0.388314 0.000000
0.000000 0.651391 0.000000
0.000000 0.651287 0.000000
0.000000 0.650758 0.000000
0.223941 0.649028 0.000000
0.444407 0.644951 0.000000
0.623719 0.637268 0.000000
0.792737 0.624771 0.000000
0.957861 0.606297 0.000000
1.000000 0.580569 0.000000
0.000000 0.791525 0.000000
0.000000 0.791442 0.000000
0.000000 0.791092 0.000000
0.000000 0.790023 0.000000
0.370634 0.787530 0.000000
0.574971 0.782754 0.000000
0.754055 0.774820 0.000000
0.924460 0.762902 0.000000
1.000000 0.746205 0.000000
0.000000 0.931936 0.000000
0.000000 0.931866 0.000000
0.000000 0.931606 0.000000
0.000000 0.930878 0.000000
0.243219 0.929225 0.000000
0.508950 0.926059 0.000000
0.705949 0.920734 0.000000
0.884894 0.912612 0.000000
1.000000 0.901092 0.000000
0.000000 1.000000 0.000000
0.000000 1.000000 0.000000
0.000000 1.000000 0.000000
0.000000 1.000000 0.000000
0.000000 1.000000 0.000000
0.413165 1.000000 0.000000
0.644408 1.000000 0.000000
0.837227 1.000000 0.000000
1.000000 1.000000 0.000000
0.000000 0.000000 0.313630
0.106990 0.000000 0.303151
0.279830 0.000000 0.280160
0.437696 0.000000 0.255797
0.591558 0.000000 0.232405
0.744752 0.000000 0.209976
0.898068 0.000000 0.187755
1.000000 0.000000 0.164549
1.000000 0.000000 0.138578
0.000000 0.095421 0.281969
0.089364 0.083399 0.275074
0.269169 0.034573 0.260989
0.427732 0.000000 0.242554
0.583147 0.000000 0.222422
0.737762 0.000000 0.201593
0.892218 0.000000 0.179925
1.000000 0.000000 0.156499
1.000000 0.000000 0.129501
0.000000 0.233524 0.240777
0.046597 0.231290 0.237144
0.247070 0.222896 0.228730
0.407967 0.201616 0.215836
0.565507 0.156795 0.199597
0.722330 0.036955 0.180779
0.878816 0.000000 0.159389
1.000000 0.000000 0.134467
1.000000 0.000000 0.103415
0.000000 0.371768 0.195516
0.000000 0.371061 0.192897
0.201459 0.368184 0.186508
0.377620 0.360341 0.175865
0.539921 0.344281 0.161039
0.699588 0.316364 0.141917
0.858435 0.270816 0.117571
1.000000 0.192417 0.084903
1.000000 0.000000 0.031372
0.000000 0.510988 0.132796
0.000000 0.510673 0.130009
0.082930 0.509386 0.122942
0.329992 0.505724 0.110284
0.505385 0.497862 0.090485
0.670414 0.483932 0.059436
0.832401 0.462039 0.006582
0.993154 0.429848 0.000000
1.000000 0.383579 0.000000
0.000000 0.650807 0.000000
0.000000 0.650627 0.000000
0.000000 0.649924 0.000000
0.247995 0.647937 0.000000
0.457391 0.643560 0.000000
0.633511 0.635566 0.000000
0.800820 0.622760 0.000000
0.964797 0.603975 0.000000
1.000000 0.577911 0.000000
0.000000 0.791011 0.000000
0.000000 0.790889 0.000000
0.000000 0.790444 0.000000
0.000000 0.789228 0.000000
0.386869 0.786552 0.000000
0.585645 0.781577 0.000000
0.762429 0.773441 0.000000
0.931476 0.761323 0.000000
1.000000 0.744427 0.000000
0.000000 0.931487 0.000000
0.000000 0.931394 0.000000
0.000000 0.931079 0.000000
0.000000 0.930261 0.000000
0.269169 0.928493 0.000000
0.521172 0.925194 0.000000
0.714803 0.919730 0.000000
0.892061 0.911468 0.000000
1.000000 0.899811 0.000000
0.000000 1.000000 0.000000
0.000000 1.000000 0.000000
0.000000 1.000000 0.000000
0.000000 1.000000 0.000000
0.000000 1.000000 0.000000
0.428672 1.000000 0.000000
0.654095 1.000000 0.000000
0.844673 1.000000 0.000000
1.000000 1.000000 0.000000
0.000000 0.000000 0.490991
0.000000 0.000000 0.480267
0.258542 0.000000 0.460315
0.433242 0.000000 0.436163
0.593587 0.000000 0.411254
0.749685 0.000000 0.386855
0.904303 0.000000 0.363240
1.000000 0.000000 0.340261
1.000000 0.000000 0.317554
0.000000 0.084126 0.461945
0.000000 0.066122 0.455547
0.251090 0.000000 0.441803
0.425109 0.000000 0.422835
0.586187 0.000000 0.401439
0.743257 0.000000 0.379273
0.898772 0.000000 0.357045
1.000000 0.000000 0.334895
1.000000 0.000000 0.312637
0.000000 0.231779 0.421765
0.000000 0.228099 0.418170
0.234979 0.216960 0.409747
0.408581 0.191961 0.396710
0.570432 0.140599 0.380343
0.728939 0.000000 0.361893
0.886031 0.000000 0.342191
1.000000 0.000000 0.321620
1.000000 0.000000 0.300202
0.000000 0.370965 0.379734
0.000000 0.369691 0.377427
0.198598 0.365650 0.371811
0.382515 0.356312 0.362560
0.547185 0.338617 0.350066
0.707588 0.308792 0.334933
0.866504 0.260418 0.317699
1.000000 0.175233 0.298688
1.000000 0.000000 0.277948
0.000000 0.510264 0.335482
0.000000 0.509697 0.333744
0.102863 0.507856 0.329430
0.340585 0.503421 0.322082
0.515343 0.494698 0.311702
0.679908 0.479881 0.298470
0.841366 0.457051 0.282586
1.000000 0.423758 0.264126
1.000000 0.375964 0.242939
0.000000 0.650094 0.284139
0.000000 0.649789 0.282591
0.000000 0.648800 0.278703
0.268385 0.646383 0.271931
0.470688 0.641498 0.262055
0.644638 0.632970 0.248956
0.810693 0.619626 0.232475
0.973740 0.600292 0.212261
1.000000 0.573635 0.187525
0.000000 0.790328 0.215242
0.000000 0.790138 0.213533
0.000000 0.789532 0.209189
0.099243 0.788066 0.201448
0.405176 0.785075 0.189747
0.598745 0.779755 0.173398
0.773289 0.771265 0.151234
0.940963 0.758794 0.120720
1.000000 0.741543 0.074233
0.000000 0.930849 0.085512
0.000000 0.930716 0.081790
0.000000 0.930306 0.071745
0.000000 0.929333 0.050947
0.299027 0.927363 0.011433
0.537054 0.923833 0.000000
0.726858 0.918124 0.000000
0.902152 0.909615 0.000000
1.000000 0.897713 0.000000
0.000000 1.000000 0.000000
0.000000 1.000000 0.000000
0.000000 1.000000 0.000000
0.000000 1.000000 0.000000
0.000000 1.000000 0.000000
0.449505 1.000000 0.000000
0.667793 1.000000 0.000000
0.855510 1.000000 0.000000
1.000000 1.000000 0.000000
0.000000 0.000000 0.664214
0.000000 0.000000 0.656374
0.207477 0.000000 0.639903
0.415357 0.000000 0.617695
0.587320 0.000000 0.593066
0.749227 0.000000 0.567874
0.907053 0.000000 0.542954
1.000000 0.000000 0.518602
1.000000 0.000000 0.494843
0.000000 0.055284 0.641269
0.000000 0.025547 0.635652
0.202026 0.000000 0.623072
0.408832 0.000000 0.604789
0.580985 0.000000 0.583242
0.743478 0.000000 0.560253
0.901954 0.000000 0.536861
1.000000 0.000000 0.513561
1.000000 0.000000 0.490520
0.000000 0.226958 0.603735
0.000000 0.221964 0.600231
0.190210 0.207970 0.591918
0.395354 0.178288 0.578817
0.567319 0.116461 0.562078
0.730560 0.000000 0.542987
0.890145 0.000000 0.522548
1.000000 0.000000 0.501403
1.000000 0.000000 0.479892
0.000000 0.369408 0.562029
0.000000 0.367523 0.559745
0.159634 0.362173 0.554161
0.373672 0.351038 0.544911
0.546869 0.331233 0.532366
0.711088 0.298785 0.517185
0.871902 0.246280 0.500052
1.000000 0.149795 0.481522
1.000000 0.000000 0.461970
0.000000 0.509363 0.519563
0.000000 0.508491 0.517931
0.058522 0.505963 0.513876
0.337638 0.500542 0.506973
0.518447 0.490682 0.497259
0.685577 0.474656 0.485005
0.848223 0.450512 0.470580
1.000000 0.415644 0.454344
1.000000 0.365625 0.436581
0.000000 0.649318 0.475612
0.000000 0.648851 0.474326
0.000000 0.647483 0.471106
0.274090 0.644492 0.465532
0.478012 0.638914 0.457506
0.652762 0.629641 0.447092
0.819119 0.615535 0.434446
0.982169 0.595412 0.419747
1.000000 0.567894 0.403145
0.000000 0.789579 0.427642
0.000000 0.789296 0.426528
0.000000 0.788470 0.423719
0.135036 0.786656 0.418805
0.418266 0.783225 0.411615
0.609756 0.777414 0.402094
0.783421 0.768416 0.390253
0.950488 0.755433 0.376121
1.000000 0.737663 0.359701
0.000000 0.930119 0.371386
0.000000 0.929930 0.370313
0.000000 0.929385 0.367598
0.000000 0.928194 0.362807
0.322917 0.925936 0.355703
0.551798 0.922073 0.346131
0.738947 0.916009 0.333968
0.912850 0.907138 0.319074
1.000000 0.894873 0.301240
0.000000 1.000000 0.298689
0.000000 1.000000 0.297502
0.000000 1.000000 0.294483
0.000000 1.000000 0.289104
0.100974 1.000000 0.281006
0.470089 1.000000 0.269854
0.682332 1.000000 0.255259
0.867543 1.000000 0.236674
1.000000 1.000000 0.213197
0.000000 0.000000 0.838163
0.000000 0.000000 0.832093
0.077143 0.000000 0.818501
0.380657 0.000000 0.798744
0.571012 0.000000 0.775431
0.741818 0.000000 0.750520
0.904800 0.000000 0.725157
1.000000 0.000000 0.699934
1.000000 0.000000 0.675117
0.000000 0.000000 0.819637
0.000000 0.000000 0.814808
0.069761 0.000000 0.803642
0.375293 0.000000 0.786693
0.565621 0.000000 0.765874
0.736745 0.000000 0.742924
0.900172 0.000000 0.719030
1.000000 0.000000 0.694889
1.000000 0.000000 0.670866
0.000000 0.217209 0.785626
0.000000 0.211037 0.782309
0.053831 0.194109 0.774352
0.364130 0.158448 0.761587
0.553861 0.077164 0.744950
0.725256 0.000000 0.725631
0.889395 0.000000 0.704664
1.000000 0.000000 0.682798
1.000000 0.000000 0.660511
0.000000 0.366160 0.744942
0.000000 0.363706 0.742685
0.000000 0.357076 0.737141
0.346021 0.344041 0.727891
0.536092 0.321798 0.715239
0.707774 0.286044 0.699809
0.872625 0.227818 0.682302
1.000000 0.111365 0.663338
1.000000 0.000000 0.643396
0.000000 0.507876 0.702668
0.000000 0.506684 0.701050
0.000000 0.503425 0.697025
0.314816 0.496913 0.690149
0.511111 0.485741 0.680444
0.684671 0.468257 0.668177
0.850694 0.442469 0.653743
1.000000 0.405562 0.637563
1.000000 0.352563 0.620012
0.000000 0.648345 0.659928
0.000000 0.647692 0.658692
0.000000 0.645890 0.655592
0.257088 0.642229 0.650225
0.474982 0.635822 0.642497
0.654684 0.625639 0.632489
0.823553 0.610577 0.620394
0.987984 0.589445 0.606459
1.000000 0.560807 0.590935
0.000000 0.788753 0.616085
0.000000 0.788360 0.615077
0.000000 0.787268 0.612540
0.125142 0.785030 0.608108
0.420807 0.781056 0.601642
0.615022 0.774631 0.593127
0.790046 0.764987 0.582636
0.957828 0.751342 0.570292
1.000000 0.732895 0.556240
0.000000 0.929338 0.569594
0.000000 0.929080 0.568719
0.000000 0.928367 0.566510
0.000000 0.926900 0.562627
0.334281 0.924278 0.556909
0.561228 0.919990 0.549288
0.748075 0.913467 0.539760
0.921844 0.904125 0.528365
1.000000 0.891384 0.515160
0.000000 1.000000 0.518110
0.000000 1.000000 0.517300
0.000000 1.000000 0.515249
0.000000 1.000000 0.511626
0.153857 1.000000 0.506254
0.485464 1.000000 0.499024
0.694476 1.000000 0.489877
0.878385 1.000000 0.478784
1.000000 1.000000 0.465727
0.000000 0.000000 1.000000
0.000000 0.000000 1.000000
0.000000 0.000000 0.996294
0.322093 0.000000 0.978930
0.542932 0.000000 0.957393
0.726408 0.000000 0.933450
0.896608 0.000000 0.908352
1.000000 0.000000 0.882874
1.000000 0.000000 0.857457
0.000000 0.000000 0.997246
0.000000 0.000000 0.993106
0.000000 0.000000 0.983308
0.317307 0.000000 0.967916
0.538285 0.000000 0.948315
0.721943 0.000000 0.926029
0.892439 0.000000 0.902258
1.000000 0.000000 0.877812
1.000000 0.000000 0.853189
0.000000 0.200738 0.966872
0.000000 0.193323 0.963798
0.000000 0.172884 0.956349
0.307353 0.128192 0.944203
0.528060 0.000000 0.928064
0.711755 0.000000 0.908970
0.882681 0.000000 0.887913
1.000000 0.000000 0.865676
1.000000 0.000000 0.842813
0.000000 0.360326 0.927998
0.000000 0.357369 0.925801
0.000000 0.349552 0.920383
0.291269 0.334610 0.911277
0.512528 0.309667 0.898707
0.696135 0.269844 0.883228
0.867394 0.203590 0.865507
1.000000 0.037145 0.846178
1.000000 0.000000 0.825758
0.000000 0.505269 0.886164
0.000000 0.503773 0.884557
0.000000 0.499798 0.880551
0.262405 0.492182 0.873686
0.490546 0.479616 0.863952
0.675364 0.460503 0.851590
0.847277 0.432784 0.836985
1.000000 0.393374 0.820567
1.000000 0.336533 0.802743
0.000000 0.646892 0.843589
0.000000 0.646049 0.842363
0.000000 0.643794 0.839286
0.204097 0.639419 0.833947
0.458222 0.632107 0.826246
0.648203 0.620898 0.816252
0.822236 0.604730 0.804162
0.989682 0.582399 0.790237
1.000000 0.552401 0.774757
0.000000 0.787725 0.800658
0.000000 0.787210 0.799677
0.000000 0.785827 0.797208
0.014007 0.783117 0.792891
0.408702 0.778529 0.786590
0.611922 0.771397 0.778293
0.791133 0.760995 0.768081
0.961300 0.746563 0.756099
1.000000 0.727295 0.742522
0.000000 0.928466 0.756855
0.000000 0.928130 0.756035
0.000000 0.927223 0.753964
0.000000 0.925440 0.750323
0.328262 0.922394 0.744968
0.562246 0.917606 0.737843
0.751927 0.910537 0.728962
0.927272 0.900626 0.718393
1.000000 0.887306 0.706235
0.000000 1.000000 0.711144
0.000000 1.000000 0.710427
0.000000 1.000000 0.708611
0.000000 1.000000 0.705409
0.162306 1.000000 0.700670
0.491952 1.000000 0.694314
0.701605 1.000000 0.686319
0.886005 1.000000 0.676698
1.000000 1.000000 0.665497
0.000000 0.000000 1.000000
0.000000 0.000000 1.000000
0.000000 0.000000 1.000000
0.216846 0.000000 1.000000
0.500308 0.000000 1.000000
0.701942 0.000000 1.000000
0.881772 0.000000 1.000000
1.000000 0.000000 1.000000
1.000000 0.000000 1.000000
0.000000 0.000000 1.000000
0.000000 0.000000 1.000000
0.000000 0.000000 1.000000
0.211320 0.000000 1.000000
0.496169 0.000000 1.000000
0.697982 0.000000 1.000000
0.878021 0.000000 1.000000
1.000000 0.000000 1.000000
1.000000 0.000000 1.000000
0.000000 0.174935 1.000000
0.000000 0.165789 1.000000
0.000000 0.139831 1.000000
0.199779 0.075280 1.000000
0.486996 0.000000 1.000000
0.688890 0.000000 1.000000
0.869198 0.000000 1.000000
1.000000 0.000000 1.000000
1.000000 0.000000 1.000000
0.000000 0.351129 1.000000
0.000000 0.347720 1.000000
0.000000 0.338788 1.000000
0.181066 0.321909 1.000000
0.473046 0.293930 1.000000
0.674861 0.248959 1.000000
0.855291 0.170539 1.000000
1.000000 0.000000 1.000000
1.000000 0.000000 1.000000
0.000000 0.501013 1.000000
0.000000 0.499240 1.000000
0.000000 0.494603 1.000000
0.144001 0.485922 1.000000
0.453278 0.471941 1.000000
0.656141 0.451080 1.000000
0.836898 0.421166 1.000000
1.000000 0.378749 1.000000
1.000000 0.316985 0.986095
0.000000 0.644616 1.000000
0.000000 0.643588 1.000000
0.000000 0.640889 1.000000
0.023541 0.635802 1.000000
0.423745 0.627558 1.000000
0.631538 0.615261 1.000000
0.813904 0.597879 0.987985
0.986204 0.574190 0.973939
1.000000 0.542606 0.958299
0.000000 0.786290 0.984727
0.000000 0.785652 0.983754
0.000000 0.783967 0.981301
0.000000 0.780765 0.977009
0.377175 0.775525 0.970736
0.598357 0.767629 0.962464
0.785195 0.756390 0.952271
0.959680 0.741069 0.940302
1.000000 0.720859 0.926743
0.000000 0.927395 0.941654
0.000000 0.926975 0.940850
0.000000 0.925861 0.938821
0.000000 0.923735 0.935253
0.298628 0.920225 0.930002
0.552378 0.914883 0.923011
0.748769 0.907202 0.914299
0.927739 0.896644 0.903938
1.000000 0.882654 0.892039
0.000000 1.000000 0.897863
0.000000 1.000000 0.897177
0.000000 1.000000 0.895442
0.000000 1.000000 0.892380
0.120113 1.000000 0.887850
0.486638 1.000000 0.881778
0.701712 1.000000 0.874147
0.888825 1.000000 0.864983
1.000000 1.000000 0.854345
0.000000 0.000000 1.000000
0.000000 0.000000 1.000000
0.000000 0.000000 1.000000
0.000000 0.000000 1.000000
0.437607 0.000000 1.000000
0.666948 0.000000 1.000000
0.859583 0.000000 1.000000
1.000000 0.000000 1.000000
1.000000 0.000000 1.000000
0.000000 0.000000 1.000000
0.000000 0.000000 1.000000
0.000000 0.000000 1.000000
0.000000 0.000000 1.000000
0.433670 0.000000 1.000000
0.663375 0.000000 1.000000
0.856191 0.000000 1.000000
1.000000 0.000000 1.000000
1.000000 0.000000 1.000000
0.000000 0.133960 1.000000
0.000000 0.121296 1.000000
0.000000 0.081529 1.000000
0.000000 0.000000 1.000000
0.424895 0.000000 1.000000
0.655123 0.000000 1.000000
0.848179 0.000000 1.000000
1.000000 0.000000 1.000000
1.000000 0.000000 1.000000
0.000000 0.337828 1.000000
0.000000 0.333981 1.000000
0.000000 0.323924 1.000000
0.000000 0.304944 1.000000
0.411563 0.273333 1.000000
0.642330 0.221339 1.000000
0.835480 0.120792 1.000000
1.000000 0.000000 1.000000
1.000000 0.000000 1.000000
0.000000 0.494640 1.000000
0.000000 0.492619 1.000000
0.000000 0.487376 1.000000
0.000000 0.477683 1.000000
0.392723 0.462289 1.000000
0.625240 0.439572 1.000000
0.818618 0.407185 1.000000
0.997254 0.361152 1.000000
1.000000 0.292959 1.000000
0.000000 0.641170 1.000000
0.000000 0.639971 1.000000
0.000000 0.636855 1.000000
0.000000 0.631082 1.000000
0.364097 0.621919 1.000000
0.602726 0.608508 1.000000
0.797484 0.589837 1.000000
0.976746 0.564654 1.000000
1.000000 0.531266 1.000000
0.000000 0.784211 1.000000
0.000000 0.783451 1.000000
0.000000 0.781469 1.000000
0.000000 0.777778 1.000000
0.316957 0.771878 1.000000
0.572097 0.763190 1.000000
0.770993 0.751064 1.000000
0.952039 0.734780 1.000000
1.000000 0.713525 1.000000
0.000000 0.925972 1.000000
0.000000 0.925465 1.000000
0.000000 0.924140 1.000000
0.000000 0.921659 1.000000
0.230472 0.917667 1.000000
0.529043 0.911739 1.000000
0.737171 0.903400 1.000000
0.922173 0.892136 1.000000
1.000000 0.877406 1.000000
0.000000 1.000000 1.000000
0.000000 1.000000 1.000000
0.000000 1.000000 1.000000
0.000000 1.000000 1.000000
0.000000 1.000000 1.000000
0.466462 1.000000 1.000000
0.693144 1.000000 1.000000
0.885619 1.000000 1.000000
1.000000 1.000000 1.000000
